; generated by Slic3r 0.9.10b on 2013-07-05 at 19:40:35

; layer_height = 0.1
; perimeters = 2
; top_solid_layers = 3
; bottom_solid_layers = 3
; fill_density = 0.1
; perimeter_speed = 35
; infill_speed = 50
; travel_speed = 110
; nozzle_diameter = 0.4
; filament_diameter = 2.95
; extrusion_multiplier = 6
; perimeters extrusion width = 0.68mm
; infill extrusion width = 1.28mm
; solid infill extrusion width = 0.68mm
; top infill extrusion width = 0.68mm
; first layer extrusion width = 0.40mm

G21 ; set units to millimeters
M107
M104 S260 ; set temperature
G28 ; home all axes
G1 Z5 F5000 ; lift nozzle
M109 S260 ; wait for temperature to be reached
G90 ; use absolute coordinates
G92 E0
M82 ; use absolute distances for extrusion
G1 F2700.000 E-0.85000
G92 E0
G1 Z0.200 F6600.000
G1 X85.470 Y85.470
G1 F2700.000 E0.85000
G1 X86.440 Y84.680 F630.000 E0.93785
G1 X87.550 Y84.090 E1.02613
G1 X88.750 Y83.720 E1.11432
G1 X90.000 Y83.600 E1.20251
G1 X110.000 Y83.600 E2.60706
G1 X111.250 Y83.720 E2.69525
G1 X112.450 Y84.090 E2.78344
G1 X113.560 Y84.680 E2.87172
G1 X114.530 Y85.470 E2.95957
G1 X115.320 Y86.440 E3.04743
G1 X115.910 Y87.550 E3.13571
G1 X116.280 Y88.750 E3.22389
G1 X116.400 Y90.000 E3.31208
G1 X116.400 Y110.000 E4.71663
G1 X116.280 Y111.250 E4.80482
G1 X115.910 Y112.450 E4.89301
G1 X115.320 Y113.560 E4.98129
G1 X114.530 Y114.530 E5.06914
G1 X113.560 Y115.320 E5.15700
G1 X112.450 Y115.910 E5.24528
G1 X111.250 Y116.280 E5.33347
G1 X110.000 Y116.400 E5.42165
G1 X90.000 Y116.400 E6.82621
G1 X88.750 Y116.280 E6.91439
G1 X87.550 Y115.910 E7.00258
G1 X86.440 Y115.320 E7.09086
G1 X85.470 Y114.530 E7.17872
G1 X84.680 Y113.560 E7.26657
G1 X84.090 Y112.450 E7.35485
G1 X83.720 Y111.250 E7.44304
G1 X83.600 Y110.000 E7.53123
G1 X83.600 Y90.000 E8.93578
G1 X83.720 Y88.750 E9.02396
G1 X84.090 Y87.550 E9.11215
G1 X84.680 Y86.440 E9.20043
G1 X85.432 Y85.517 E9.28407
G1 F2700.000 E8.43407
G92 E0
G1 X90.600 Y90.600 F6600.000
G1 F2700.000 E0.85000
G1 X109.400 Y90.600 F630.000 E2.17028
G1 X109.400 Y109.400 E3.49055
G1 X90.600 Y109.400 E4.81083
G1 X90.600 Y90.660 E6.12690
G1 X90.200 Y90.200 F6600.000
G1 X109.800 Y90.200 F472.500 E7.50336
G1 X109.800 Y109.800 E8.87981
G1 X90.200 Y109.800 E10.25627
G1 X90.200 Y90.260 E11.62852
G1 X90.546 Y90.400 F6600.000
G1 X109.093 Y90.890
G1 X109.110 Y90.914 F810.000 E11.63059
G1 X109.110 Y91.615 E11.68005
G1 X108.603 Y90.890 E11.74250
G1 X108.112 Y90.890 E11.77713
G1 X109.110 Y92.316 E11.89996
G1 X109.110 Y93.016 E11.94941
G1 X107.621 Y90.890 E12.13261
G1 X107.130 Y90.890 E12.16724
G1 X109.110 Y93.717 E12.41082
G1 X109.110 Y94.418 E12.46028
G1 X106.640 Y90.890 E12.76423
G1 X106.149 Y90.890 E12.79886
G1 X109.110 Y95.119 E13.16319
G1 X109.110 Y95.820 E13.21265
G1 X105.658 Y90.890 E13.63735
G1 X105.168 Y90.890 E13.67198
G1 X109.110 Y96.520 E14.15706
G1 X109.110 Y97.221 E14.20652
G1 X104.677 Y90.890 E14.75197
G1 X104.186 Y90.890 E14.78660
G1 X109.110 Y97.922 E15.39243
G1 X109.110 Y98.623 E15.44189
G1 X103.696 Y90.890 E16.10810
G1 X103.205 Y90.890 E16.14273
G1 X109.110 Y99.324 E16.86931
G1 X109.110 Y100.024 E16.91876
G1 X102.714 Y90.890 E17.70572
G1 X102.223 Y90.890 E17.74035
G1 X109.110 Y100.725 E18.58769
G1 X109.110 Y101.426 E18.63714
G1 X101.733 Y90.890 E19.54485
G1 X101.242 Y90.890 E19.57948
G1 X109.110 Y102.127 E20.54757
G1 X109.110 Y102.828 E20.59703
G1 X100.751 Y90.890 E21.62549
G1 X100.261 Y90.890 E21.66012
G1 X109.110 Y103.528 E22.74895
G1 X109.110 Y104.229 E22.79841
G1 X99.770 Y90.890 E23.94762
G1 X99.279 Y90.890 E23.98225
G1 X109.110 Y104.930 E25.19184
G1 X109.110 Y105.631 E25.24130
G1 X98.788 Y90.890 E26.51126
G1 X98.298 Y90.890 E26.54589
G1 X109.110 Y106.332 E27.87623
G1 X109.110 Y107.032 E27.92569
G1 X97.807 Y90.890 E29.31640
G1 X97.316 Y90.890 E29.35103
G1 X109.110 Y107.733 E30.80212
G1 X109.110 Y108.434 E30.85158
G1 X96.826 Y90.890 E32.36305
G1 X96.335 Y90.890 E32.39768
G1 X109.093 Y109.110 E33.96740
G1 X108.602 Y109.110 E34.00203
G1 X95.844 Y90.890 E35.57175
G1 X95.354 Y90.890 E35.60638
G1 X108.111 Y109.110 E37.17610
G1 X107.621 Y109.110 E37.21073
G1 X94.863 Y90.890 E38.78045
G1 X94.372 Y90.890 E38.81508
G1 X107.130 Y109.110 E40.38480
G1 X106.639 Y109.110 E40.41943
G1 X93.881 Y90.890 E41.98915
G1 X93.391 Y90.890 E42.02378
G1 X106.149 Y109.110 E43.59350
G1 X105.658 Y109.110 E43.62813
G1 X92.900 Y90.890 E45.19785
G1 X92.409 Y90.890 E45.23248
G1 X105.167 Y109.110 E46.80220
G1 X104.677 Y109.110 E46.83683
G1 X91.919 Y90.890 E48.40655
G1 X91.428 Y90.890 E48.44118
G1 X104.186 Y109.110 E50.01090
G1 X103.695 Y109.110 E50.04553
G1 X90.937 Y90.890 E51.61525
G1 X90.890 Y91.523 E51.66007
G1 X103.204 Y109.110 E53.17523
G1 X102.714 Y109.110 E53.20986
G1 X90.890 Y92.224 E54.66465
G1 X90.890 Y92.925 E54.71410
G1 X102.223 Y109.110 E56.10852
G1 X101.732 Y109.110 E56.14315
G1 X90.890 Y93.626 E57.47718
G1 X90.890 Y94.326 E57.52664
G1 X101.242 Y109.110 E58.80030
G1 X100.751 Y109.110 E58.83493
G1 X90.890 Y95.027 E60.04821
G1 X90.890 Y95.728 E60.09767
G1 X100.260 Y109.110 E61.25058
G1 X99.769 Y109.110 E61.28521
G1 X90.890 Y96.429 E62.37774
G1 X90.890 Y97.130 E62.42720
G1 X99.279 Y109.110 E63.45935
G1 X98.788 Y109.110 E63.49398
G1 X90.890 Y97.830 E64.46576
G1 X90.890 Y98.531 E64.51522
G1 X98.297 Y109.110 E65.42663
G1 X97.807 Y109.110 E65.46126
G1 X90.890 Y99.232 E66.31229
G1 X90.890 Y99.933 E66.36174
G1 X97.316 Y109.110 E67.15240
G1 X96.825 Y109.110 E67.18703
G1 X90.890 Y100.634 E67.91730
G1 X90.890 Y101.334 E67.96676
G1 X96.335 Y109.110 E68.63666
G1 X95.844 Y109.110 E68.67129
G1 X90.890 Y102.035 E69.28082
G1 X90.890 Y102.736 E69.33028
G1 X95.353 Y109.110 E69.87943
G1 X94.862 Y109.110 E69.91406
G1 X90.890 Y103.437 E70.40283
G1 X90.890 Y104.138 E70.45229
G1 X94.372 Y109.110 E70.88069
G1 X93.881 Y109.110 E70.91532
G1 X90.890 Y104.838 E71.28334
G1 X90.890 Y105.539 E71.33280
G1 X93.390 Y109.110 E71.64045
G1 X92.900 Y109.110 E71.67508
G1 X90.890 Y106.240 E71.92235
G1 X90.890 Y106.941 E71.97181
G1 X92.409 Y109.110 E72.15871
G1 X91.918 Y109.110 E72.19334
G1 X90.890 Y107.642 E72.31986
G1 X90.890 Y108.342 E72.36931
G1 X91.427 Y109.110 E72.43546
G1 X90.890 Y109.043 E72.47369
G1 X90.937 Y109.110 E72.47946
M106 S255
G1 F2700.000 E71.62946
G92 E0
G1 Z0.300 F6600.000
G1 X90.988 Y109.012
G1 F2700.000 E0.85000
G1 X90.988 Y90.988 F1800.000 E1.89198
G1 X109.012 Y90.988 E2.93396
G1 X109.012 Y109.012 E3.97594
G1 X91.087 Y109.012 E5.01221
G1 X90.329 Y109.671 F6600.000
G1 X90.329 Y90.329 F1800.000 E6.13033
G1 X109.671 Y90.329 E7.24845
G1 X109.671 Y109.671 E8.36658
G1 X90.428 Y109.671 E9.47899
G1 X90.659 Y109.100 F6600.000
G1 X91.465 Y92.234
G1 X92.564 Y91.465 F1800.000 E9.55759
G1 X93.728 Y91.465 E9.62581
G1 X91.465 Y93.049 E9.78770
G1 X91.465 Y93.864 E9.83547
G1 X94.892 Y91.465 E10.08065
G1 X96.056 Y91.465 E10.14887
G1 X91.465 Y94.680 E10.47734
G1 X91.465 Y95.495 E10.52511
G1 X97.220 Y91.465 E10.93686
G1 X98.384 Y91.465 E11.00509
G1 X91.465 Y96.310 E11.50013
G1 X91.465 Y97.125 E11.54790
G1 X99.548 Y91.465 E12.12623
G1 X100.712 Y91.465 E12.19445
G1 X91.465 Y97.940 E12.85607
G1 X91.465 Y98.755 E12.90384
G1 X101.876 Y91.465 E13.64874
G1 X103.040 Y91.465 E13.71697
G1 X91.465 Y99.570 E14.54516
G1 X91.465 Y100.385 E14.59293
G1 X104.204 Y91.465 E15.50441
G1 X105.368 Y91.465 E15.57264
G1 X91.465 Y101.200 E16.56740
G1 X91.465 Y102.015 E16.61517
G1 X106.532 Y91.465 E17.69323
G1 X107.696 Y91.465 E17.76145
G1 X91.465 Y102.830 E18.92280
G1 X91.465 Y103.645 E18.97057
G1 X108.535 Y91.693 E20.19192
G1 X108.535 Y92.508 E20.23969
G1 X91.465 Y104.460 E21.46104
G1 X91.465 Y105.275 E21.50881
G1 X108.535 Y93.323 E22.73016
G1 X108.535 Y94.138 E22.77793
G1 X91.465 Y106.091 E23.99928
G1 X91.465 Y106.906 E24.04705
G1 X108.535 Y94.953 E25.26840
G1 X108.535 Y95.768 E25.31617
G1 X91.465 Y107.721 E26.53752
G1 X91.466 Y108.535 E26.58524
G1 X108.535 Y96.583 E27.80650
G1 X108.535 Y97.398 E27.85427
G1 X92.630 Y108.535 E28.99224
G1 X93.794 Y108.535 E29.06047
G1 X108.535 Y98.214 E30.11515
G1 X108.535 Y99.029 E30.16292
G1 X94.959 Y108.535 E31.13432
G1 X96.123 Y108.535 E31.20254
G1 X108.535 Y99.844 E32.09065
G1 X108.535 Y100.659 E32.13842
G1 X97.287 Y108.535 E32.94324
G1 X98.451 Y108.535 E33.01147
G1 X108.535 Y101.474 E33.73300
G1 X108.535 Y102.289 E33.78077
G1 X99.615 Y108.535 E34.41901
G1 X100.779 Y108.535 E34.48724
G1 X108.535 Y103.104 E35.04220
G1 X108.535 Y103.919 E35.08997
G1 X101.943 Y108.535 E35.56164
G1 X103.107 Y108.535 E35.62986
G1 X108.535 Y104.734 E36.01824
G1 X108.535 Y105.549 E36.06601
G1 X104.271 Y108.535 E36.37111
G1 X105.435 Y108.535 E36.43933
G1 X108.535 Y106.364 E36.66114
G1 X108.535 Y107.179 E36.70891
G1 X106.599 Y108.535 E36.84743
G1 X107.763 Y108.535 E36.91565
G1 X108.535 Y107.994 E36.97088
G1 F2700.000 E36.12088
G92 E0
G1 Z0.400 F6600.000
G1 X109.012 Y109.012
G1 F2700.000 E0.85000
G1 X90.988 Y109.012 F1800.000 E1.89198
G1 X90.988 Y90.988 E2.93396
G1 X109.012 Y90.988 E3.97594
G1 X109.012 Y108.913 E5.01221
G1 X109.671 Y109.671 F6600.000
G1 X90.329 Y109.671 F1800.000 E6.13033
G1 X90.329 Y90.329 E7.24845
G1 X109.671 Y90.329 E8.36658
G1 X109.671 Y109.572 E9.47899
G1 X109.100 Y109.341 F6600.000
G1 X92.139 Y108.535
G1 X91.465 Y107.572 F1800.000 E9.54786
G1 X91.465 Y106.408 E9.61609
G1 X92.954 Y108.535 E9.76825
G1 X93.769 Y108.535 E9.81603
G1 X91.465 Y105.244 E10.05148
G1 X91.465 Y104.080 E10.11970
G1 X94.584 Y108.535 E10.43844
G1 X95.399 Y108.535 E10.48622
G1 X91.465 Y102.916 E10.88825
G1 X91.465 Y101.752 E10.95647
G1 X96.215 Y108.535 E11.44179
G1 X97.030 Y108.535 E11.48956
G1 X91.465 Y100.588 E12.05816
G1 X91.465 Y99.424 E12.12639
G1 X97.845 Y108.535 E12.77828
G1 X98.660 Y108.535 E12.82605
G1 X91.465 Y98.260 E13.56123
G1 X91.465 Y97.096 E13.62946
G1 X99.475 Y108.535 E14.44793
G1 X100.290 Y108.535 E14.49570
G1 X91.465 Y95.932 E15.39745
G1 X91.465 Y94.768 E15.46568
G1 X101.105 Y108.535 E16.45072
G1 X101.920 Y108.535 E16.49849
G1 X91.465 Y93.604 E17.56683
G1 X91.465 Y92.440 E17.63505
G1 X102.735 Y108.535 E18.78667
G1 X103.550 Y108.535 E18.83444
G1 X91.598 Y91.465 E20.05579
G1 X92.413 Y91.465 E20.10356
G1 X104.365 Y108.535 E21.32491
G1 X105.180 Y108.535 E21.37268
G1 X93.228 Y91.465 E22.59403
G1 X94.043 Y91.465 E22.64180
G1 X105.995 Y108.535 E23.86315
G1 X106.810 Y108.535 E23.91093
G1 X94.858 Y91.465 E25.13227
G1 X95.673 Y91.465 E25.18005
G1 X107.626 Y108.535 E26.40139
G1 X108.441 Y108.535 E26.44917
G1 X96.488 Y91.465 E27.67052
G1 X97.303 Y91.465 E27.71829
G1 X108.535 Y107.505 E28.86598
G1 X108.535 Y106.341 E28.93421
G1 X98.118 Y91.465 E29.99861
G1 X98.933 Y91.465 E30.04638
G1 X108.535 Y105.177 E31.02750
G1 X108.535 Y104.013 E31.09573
G1 X99.749 Y91.465 E31.99356
G1 X100.564 Y91.465 E32.04133
G1 X108.535 Y102.849 E32.85587
G1 X108.535 Y101.685 E32.92410
G1 X101.379 Y91.465 E33.65535
G1 X102.194 Y91.465 E33.70313
G1 X108.535 Y100.521 E34.35109
G1 X108.535 Y99.357 E34.41932
G1 X103.009 Y91.465 E34.98400
G1 X103.824 Y91.465 E35.03177
G1 X108.535 Y98.193 E35.51316
G1 X108.535 Y97.029 E35.58139
G1 X104.639 Y91.465 E35.97949
G1 X105.454 Y91.465 E36.02726
G1 X108.535 Y95.865 E36.34208
G1 X108.535 Y94.701 E36.41030
G1 X106.269 Y91.465 E36.64183
G1 X107.084 Y91.465 E36.68960
G1 X108.535 Y93.537 E36.83784
G1 X108.535 Y92.373 E36.90607
G1 X107.899 Y91.465 E36.97102
G1 F2700.000 E36.12102
G92 E0
G1 Z0.500 F6600.000
G1 X109.012 Y90.988
G1 F2700.000 E0.85000
G1 X109.012 Y109.012 F1800.000 E1.89198
G1 X90.988 Y109.012 E2.93396
G1 X90.988 Y90.988 E3.97594
G1 X108.913 Y90.988 E5.01221
G1 X109.671 Y90.329 F6600.000
G1 X109.671 Y109.671 F1800.000 E6.13033
G1 X90.329 Y109.671 E7.24845
G1 X90.329 Y90.329 E8.36658
G1 X109.572 Y90.329 E9.47899
G1 X109.341 Y90.900 F6600.000
G1 X108.535 Y94.429
G1 X91.465 Y106.382 F1800.000 E11.77772
G1 F2700.000 E10.92772
G92 E0
G1 Z0.600 F6600.000
G1 X90.988 Y109.012
G1 F2700.000 E0.85000
G1 X90.988 Y90.988 F1800.000 E1.89198
G1 X109.012 Y90.988 E2.93396
G1 X109.012 Y109.012 E3.97594
G1 X91.087 Y109.012 E5.01221
G1 X90.329 Y109.671 F6600.000
G1 X90.329 Y90.329 F1800.000 E6.13033
G1 X109.671 Y90.329 E7.24845
G1 X109.671 Y109.671 E8.36658
G1 X90.428 Y109.671 E9.47899
G1 X90.659 Y109.100 F6600.000
G1 X98.514 Y108.535
G1 X91.465 Y98.468 F1800.000 E10.83468
G1 X101.902 Y91.465 E12.22119
G1 X108.535 Y100.937 E13.49676
G1 F2700.000 E12.64676
G92 E0
G1 Z0.700 F6600.000
G1 X109.012 Y109.012
G1 F2700.000 E0.85000
G1 X90.988 Y109.012 F1800.000 E1.89198
G1 X90.988 Y90.988 E2.93396
G1 X109.012 Y90.988 E3.97594
G1 X109.012 Y108.913 E5.01221
G1 X109.671 Y109.671 F6600.000
G1 X90.329 Y109.671 F1800.000 E6.13033
G1 X90.329 Y90.329 E7.24845
G1 X109.671 Y90.329 E8.36658
G1 X109.671 Y109.572 E9.47899
G1 X109.100 Y109.341 F6600.000
G1 X108.535 Y94.429
G1 X91.465 Y106.382 F1800.000 E11.77772
G1 F2700.000 E10.92772
G92 E0
G1 Z0.800 F6600.000
G1 X90.988 Y109.012
G1 F2700.000 E0.85000
G1 X90.988 Y90.988 F1800.000 E1.89198
G1 X109.012 Y90.988 E2.93396
G1 X109.012 Y109.012 E3.97594
G1 X91.087 Y109.012 E5.01221
G1 X90.329 Y109.671 F6600.000
G1 X90.329 Y90.329 F1800.000 E6.13033
G1 X109.671 Y90.329 E7.24845
G1 X109.671 Y109.671 E8.36658
G1 X90.428 Y109.671 E9.47899
G1 X90.659 Y109.100 F6600.000
G1 X98.514 Y108.535
G1 X91.465 Y98.468 F1800.000 E10.83468
G1 X101.902 Y91.465 E12.22119
G1 X108.535 Y100.937 E13.49676
G1 F2700.000 E12.64676
G92 E0
G1 Z0.900 F6600.000
G1 X109.012 Y109.012
G1 F2700.000 E0.85000
G1 X90.988 Y109.012 F1800.000 E1.89198
G1 X90.988 Y90.988 E2.93396
G1 X109.012 Y90.988 E3.97594
G1 X109.012 Y108.913 E5.01221
G1 X109.671 Y109.671 F6600.000
G1 X90.329 Y109.671 F1800.000 E6.13033
G1 X90.329 Y90.329 E7.24845
G1 X109.671 Y90.329 E8.36658
G1 X109.671 Y109.572 E9.47899
G1 X109.100 Y109.341 F6600.000
G1 X108.535 Y94.429
G1 X91.465 Y106.382 F1800.000 E11.77772
G1 F2700.000 E10.92772
G92 E0
G1 Z1.000 F6600.000
G1 X90.988 Y109.012
G1 F2700.000 E0.85000
G1 X90.988 Y90.988 F1800.000 E1.89198
G1 X109.012 Y90.988 E2.93396
G1 X109.012 Y109.012 E3.97594
G1 X91.087 Y109.012 E5.01221
G1 X90.329 Y109.671 F6600.000
G1 X90.329 Y90.329 F1800.000 E6.13033
G1 X109.671 Y90.329 E7.24845
G1 X109.671 Y109.671 E8.36658
G1 X90.428 Y109.671 E9.47899
G1 X90.659 Y109.100 F6600.000
G1 X98.514 Y108.535
G1 X91.465 Y98.468 F1800.000 E10.83468
G1 X101.902 Y91.465 E12.22119
G1 X108.535 Y100.937 E13.49676
G1 F2700.000 E12.64676
G92 E0
G1 Z1.100 F6600.000
G1 X109.012 Y109.012
G1 F2700.000 E0.85000
G1 X90.988 Y109.012 F1800.000 E1.89198
G1 X90.988 Y90.988 E2.93396
G1 X109.012 Y90.988 E3.97594
G1 X109.012 Y108.913 E5.01221
G1 X109.671 Y109.671 F6600.000
G1 X90.329 Y109.671 F1800.000 E6.13033
G1 X90.329 Y90.329 E7.24845
G1 X109.671 Y90.329 E8.36658
G1 X109.671 Y109.572 E9.47899
G1 X109.100 Y109.341 F6600.000
G1 X108.535 Y94.429
G1 X91.465 Y106.382 F1800.000 E11.77772
G1 F2700.000 E10.92772
G92 E0
G1 Z1.200 F6600.000
G1 X90.988 Y109.012
G1 F2700.000 E0.85000
G1 X90.988 Y90.988 F1800.000 E1.89198
G1 X109.012 Y90.988 E2.93396
G1 X109.012 Y109.012 E3.97594
G1 X91.087 Y109.012 E5.01221
G1 X90.329 Y109.671 F6600.000
G1 X90.329 Y90.329 F1800.000 E6.13033
G1 X109.671 Y90.329 E7.24845
G1 X109.671 Y109.671 E8.36658
G1 X90.428 Y109.671 E9.47899
G1 X90.659 Y109.100 F6600.000
G1 X98.514 Y108.535
G1 X91.465 Y98.468 F1800.000 E10.83468
G1 X101.902 Y91.465 E12.22119
G1 X108.535 Y100.937 E13.49676
G1 F2700.000 E12.64676
G92 E0
G1 Z1.300 F6600.000
G1 X109.012 Y109.012
G1 F2700.000 E0.85000
G1 X90.988 Y109.012 F1800.000 E1.89198
G1 X90.988 Y90.988 E2.93396
G1 X109.012 Y90.988 E3.97594
G1 X109.012 Y108.913 E5.01221
G1 X109.671 Y109.671 F6600.000
G1 X90.329 Y109.671 F1800.000 E6.13033
G1 X90.329 Y90.329 E7.24845
G1 X109.671 Y90.329 E8.36658
G1 X109.671 Y109.572 E9.47899
G1 X109.100 Y109.341 F6600.000
G1 X108.535 Y94.429
G1 X91.465 Y106.382 F1800.000 E11.77772
G1 F2700.000 E10.92772
G92 E0
G1 Z1.400 F6600.000
G1 X90.988 Y109.012
G1 F2700.000 E0.85000
G1 X90.988 Y90.988 F1800.000 E1.89198
G1 X109.012 Y90.988 E2.93396
G1 X109.012 Y109.012 E3.97594
G1 X91.087 Y109.012 E5.01221
G1 X90.329 Y109.671 F6600.000
G1 X90.329 Y90.329 F1800.000 E6.13033
G1 X109.671 Y90.329 E7.24845
G1 X109.671 Y109.671 E8.36658
G1 X90.428 Y109.671 E9.47899
G1 X90.659 Y109.100 F6600.000
G1 X98.514 Y108.535
