; generated by Slic3r 0.9.10b on 2013-07-05 at 18:03:42

; layer_height = 0.2
; perimeters = 2
; top_solid_layers = 0
; bottom_solid_layers = 4
; fill_density = 0.5
; perimeter_speed = 35
; infill_speed = 40
; travel_speed = 80
; nozzle_diameter = 0.4
; filament_diameter = 2.85
; extrusion_multiplier = .9
; perimeters extrusion width = 0.67mm
; infill extrusion width = 0.67mm
; solid infill extrusion width = 0.67mm
; top infill extrusion width = 0.67mm
; first layer extrusion width = 0.62mm

G21 ; set units to millimeters
M107
M190 S70 ; wait for bed temperature to be reached
M104 S220 ; set temperature
G28 ; home all axes
M109 S220 ; wait for temperature to be reached
G90 ; use absolute coordinates
G92 E0
M82 ; use absolute distances for extrusion
G1 Z0.250 F4800.000
G1 F1200.000 E-3.00000
G92 E0
G1 X73.315 Y80.253 F4800.000
G1 F1200.000 E3.00000
G1 X73.905 Y79.833 F1680.000 E3.01473
G1 X85.025 Y73.543 E3.27460
G1 X85.615 Y73.273 E3.28779
G1 X86.245 Y73.113 E3.30102
G1 X99.365 Y70.903 E3.57164
G1 X99.985 Y70.853 E3.58430
G1 X100.605 Y70.903 E3.59695
G1 X113.725 Y73.103 E3.86754
G1 X114.345 Y73.263 E3.88057
G1 X114.935 Y73.533 E3.89377
G1 X126.065 Y79.803 E4.15361
G1 X126.655 Y80.213 E4.16822
G1 X127.155 Y80.743 E4.18304
G1 X134.595 Y90.143 E4.42689
G1 X135.035 Y90.823 E4.44336
G1 X135.305 Y91.593 E4.45996
G1 X137.925 Y102.673 E4.69155
G1 X138.025 Y103.533 E4.70916
G1 X137.925 Y104.383 E4.72657
G1 X135.315 Y115.473 E4.95831
G1 X135.045 Y116.243 E4.97491
G1 X134.615 Y116.933 E4.99144
G1 X127.195 Y126.333 E5.23503
G1 X126.415 Y127.073 E5.25690
G1 X125.465 Y127.553 E5.27855
G1 X124.415 Y127.753 E5.30030
G1 X117.065 Y128.043 E5.44992
G1 X83.815 Y128.423 E6.12628
G1 X83.475 Y128.413 E6.13320
G1 X75.475 Y127.763 E6.29646
G1 X74.485 Y127.543 E6.31709
G1 X73.585 Y127.063 E6.33784
G1 X72.855 Y126.363 E6.35841
G1 X65.415 Y116.973 E6.60210
G1 X64.975 Y116.283 E6.61874
G1 X64.705 Y115.513 E6.63534
G1 X62.085 Y104.423 E6.86713
G1 X61.985 Y103.563 E6.88474
G1 X62.085 Y102.703 E6.90235
G1 X64.695 Y91.623 E7.13389
G1 X64.965 Y90.863 E7.15030
G1 X65.395 Y90.173 E7.16683
G1 X72.815 Y80.773 E7.41043
G1 X73.256 Y80.315 E7.42334
G1 X73.695 Y80.693 F4800.000
G1 X74.195 Y80.343 F1680.000 E7.43575
G1 X85.315 Y74.053 E7.69562
G1 X85.815 Y73.823 E7.70681
G1 X86.345 Y73.683 E7.71797
G1 X99.465 Y71.473 E7.98859
G1 X99.985 Y71.433 E7.99920
G1 X100.505 Y71.473 E8.00981
G1 X113.625 Y73.673 E8.28040
G1 X114.155 Y73.813 E8.29155
G1 X114.655 Y74.033 E8.30267
G1 X125.785 Y80.303 E8.56251
G1 X126.285 Y80.653 E8.57492
G1 X126.705 Y81.093 E8.58730
G1 X134.145 Y90.493 E8.83114
G1 X134.515 Y91.083 E8.84531
G1 X134.745 Y91.723 E8.85914
G1 X137.365 Y102.803 E9.09073
G1 X137.445 Y103.533 E9.10567
G1 X137.365 Y104.253 E9.12040
G1 X134.755 Y115.343 E9.35214
G1 X134.525 Y115.993 E9.36617
G1 X134.165 Y116.573 E9.38005
G1 X126.745 Y125.973 E9.62364
G1 X126.085 Y126.603 E9.64220
G1 X125.275 Y127.013 E9.66067
G1 X124.385 Y127.173 E9.67906
G1 X117.035 Y127.463 E9.82868
G1 X83.815 Y127.843 E10.50444
G1 X83.515 Y127.833 E10.51055
G1 X75.515 Y127.183 E10.67381
G1 X74.285 Y126.823 E10.69988
G1 X73.305 Y126.003 E10.72587
G1 X65.865 Y116.613 E10.96955
G1 X65.495 Y116.023 E10.98372
G1 X65.265 Y115.383 E10.99755
G1 X62.645 Y104.293 E11.22934
G1 X62.565 Y103.563 E11.24428
G1 X62.645 Y102.843 E11.25901
G1 X65.255 Y91.763 E11.49055
G1 X65.485 Y91.113 E11.50458
G1 X65.845 Y90.533 E11.51846
G1 X73.265 Y81.133 E11.76206
G1 X73.635 Y80.755 E11.77281
G1 X74.065 Y81.123 F4800.000
G1 X74.475 Y80.843 F1680.000 E11.78291
G1 X85.595 Y74.553 E12.04277
G1 X86.005 Y74.363 E12.05197
G1 X86.435 Y74.253 E12.06099
G1 X99.555 Y72.043 E12.33162
G1 X99.985 Y72.003 E12.34041
G1 X100.415 Y72.043 E12.34919
G1 X113.535 Y74.243 E12.61979
G1 X113.965 Y74.353 E12.62881
G1 X114.365 Y74.543 E12.63782
G1 X125.495 Y80.813 E12.89766
G1 X125.905 Y81.093 E12.90776
G1 X126.255 Y81.453 E12.91798
G1 X133.695 Y90.853 E13.16182
G1 X133.995 Y91.333 E13.17333
G1 X134.185 Y91.863 E13.18479
G1 X136.805 Y102.943 E13.41637
G1 X136.875 Y103.533 E13.42846
G1 X136.805 Y104.123 E13.44054
G1 X134.195 Y115.213 E13.67229
G1 X134.005 Y115.743 E13.68374
G1 X133.705 Y116.223 E13.69525
G1 X126.285 Y125.623 E13.93884
G1 X125.435 Y126.323 E13.96124
G1 X124.365 Y126.593 E13.98369
G1 X116.945 Y126.893 E14.13474
G1 X83.805 Y127.273 E14.80887
G1 X75.565 Y126.613 E14.97701
G1 X74.565 Y126.313 E14.99825
G1 X73.755 Y125.643 E15.01963
G1 X66.315 Y116.253 E15.26332
G1 X66.015 Y115.773 E15.27483
G1 X65.825 Y115.243 E15.28628
G1 X63.205 Y104.153 E15.51807
G1 X63.135 Y103.563 E15.53015
G1 X63.205 Y102.973 E15.54224
G1 X65.815 Y91.893 E15.77378
G1 X66.005 Y91.363 E15.78523
G1 X66.305 Y90.883 E15.79675
G1 X73.725 Y81.483 E16.04034
G1 X74.006 Y81.186 E16.04865
G1 F1200.000 E13.04865
G92 E0
G1 X75.775 Y82.794 F4800.000
G1 F1200.000 E3.00000
G1 X82.930 Y82.520 F1680.000 E3.14566
G1 X86.614 Y76.668 E3.28632
G1 X86.980 Y76.531 E3.29426
G1 X93.732 Y78.595 E3.43786
G1 X99.807 Y74.364 E3.58846
G1 X100.185 Y74.374 E3.59613
G1 X105.483 Y78.458 E3.73220
G1 X113.016 Y76.515 E3.89045
G1 X113.378 Y76.670 E3.89846
G1 X116.409 Y82.131 E4.02551
G1 X124.229 Y82.770 E4.18511
G1 X124.531 Y83.080 E4.19391
G1 X124.855 Y89.069 E4.31589
G1 X131.755 Y92.172 E4.46977
G1 X131.926 Y92.611 E4.47936
G1 X129.524 Y98.237 E4.60378
G1 X134.467 Y103.299 E4.74769
G1 X134.455 Y103.785 E4.75758
G1 X129.679 Y108.213 E4.89005
G1 X131.949 Y114.482 E5.02566
G1 X131.758 Y114.908 E5.03517
G1 X125.303 Y117.471 E5.17642
G1 X124.558 Y124.022 E5.31055
G1 X124.245 Y124.313 E5.31923
G1 X116.945 Y124.601 E5.46784
G1 X116.660 Y124.441 E5.47448
G1 X115.958 Y123.178 E5.50387
G1 X115.777 Y122.606 E5.51608
G1 X115.764 Y122.514 E5.51797
G1 X115.777 Y122.034 E5.52774
G1 X115.969 Y121.443 E5.54038
G1 X116.220 Y121.076 E5.54943
G1 X116.554 Y120.751 E5.55890
G1 X119.073 Y118.772 E5.62406
G1 X121.186 Y116.638 E5.68515
G1 X122.907 Y114.379 E5.74291
G1 X123.699 Y113.098 E5.77355
G1 X124.392 Y111.764 E5.80412
G1 X124.930 Y110.525 E5.83161
G1 X125.416 Y109.137 E5.86152
G1 X125.819 Y107.613 E5.89359
G1 X126.195 Y105.148 E5.94430
G1 X126.267 Y103.704 E5.97371
G1 X126.221 Y102.270 E6.00290
G1 X125.836 Y99.561 E6.05855
G1 X125.622 Y98.696 E6.07668
G1 X125.017 Y96.806 E6.11704
G1 X124.493 Y95.555 E6.14463
G1 X123.842 Y94.261 E6.17410
G1 X123.086 Y92.996 E6.20408
G1 X122.250 Y91.789 E6.23394
G1 X121.498 Y90.835 E6.25864
G1 X120.363 Y89.570 E6.29322
G1 X118.099 Y87.512 E6.35545
G1 X115.601 Y85.743 E6.41771
G1 X113.506 Y84.580 E6.46644
G1 X111.292 Y83.569 E6.51596
G1 X109.040 Y82.781 E6.56449
G1 X106.680 Y82.144 E6.61421
G1 X104.643 Y81.769 E6.65635
G1 X102.430 Y81.523 E6.70163
G1 X100.134 Y81.420 E6.74838
G1 X98.470 Y81.460 E6.78223
G1 X96.833 Y81.584 E6.81562
G1 X94.580 Y81.907 E6.86192
G1 X92.016 Y82.470 E6.91531
G1 X89.362 Y83.388 E6.97244
G1 X89.001 Y83.497 E6.98010
G1 X88.326 Y83.763 E6.99486
G1 X85.960 Y84.878 E7.04807
G1 X85.569 Y85.079 E7.05701
G1 X84.666 Y85.596 E7.07817
G1 X82.399 Y87.148 E7.13406
G1 X80.950 Y88.332 E7.17212
G1 X78.938 Y90.362 E7.23026
G1 X77.899 Y91.626 E7.26353
G1 X77.055 Y92.823 E7.29333
G1 X76.302 Y94.053 E7.32267
G1 X75.642 Y95.330 E7.35191
G1 X75.078 Y96.630 E7.38072
G1 X74.661 Y97.816 E7.40630
G1 X74.239 Y99.341 E7.43848
G1 X74.177 Y99.618 E7.44427
G1 X73.815 Y102.058 E7.49443
G1 X73.755 Y103.440 E7.52257
G1 X73.788 Y104.507 E7.54430
G1 X73.833 Y105.143 E7.55726
G1 X73.944 Y106.204 E7.57895
G1 X74.501 Y108.784 E7.63264
G1 X75.007 Y110.285 E7.66485
G1 X75.552 Y111.588 E7.69360
G1 X76.126 Y112.728 E7.71955
G1 X76.881 Y114.011 E7.74984
G1 X77.116 Y114.372 E7.75860
G1 X78.018 Y115.632 E7.79011
G1 X79.692 Y117.564 E7.84211
G1 X81.207 Y118.986 E7.88438
G1 X83.155 Y120.524 E7.93487
G1 X84.759 Y121.610 E7.97426
G1 X85.067 Y121.970 E7.98390
G1 X85.235 Y122.326 E7.99192
G1 X85.304 Y122.777 E8.00118
G1 X85.237 Y123.203 E8.00996
G1 X85.206 Y123.291 E8.01186
G1 X84.946 Y123.746 E8.02251
G1 X84.005 Y124.874 E8.05239
G1 X83.746 Y124.982 E8.05811
G1 X75.791 Y124.337 E8.22045
G1 X75.489 Y124.026 E8.22926
G1 X75.171 Y118.037 E8.35124
G1 X68.265 Y114.935 E8.50524
G1 X68.094 Y114.496 E8.51483
G1 X70.509 Y108.888 E8.63903
G1 X65.553 Y103.809 E8.78336
G1 X65.566 Y103.322 E8.79326
G1 X70.343 Y98.905 E8.92560
G1 X68.070 Y92.625 E9.06145
G1 X68.262 Y92.199 E9.07097
G1 X74.714 Y89.647 E9.21210
G1 X75.461 Y83.085 E9.34644
G1 X75.711 Y82.853 E9.35337
G1 X76.010 Y83.362 F4800.000
G1 X83.258 Y83.085 F1176.000 E9.50091
G1 X86.998 Y77.140 E9.64377
G1 X93.831 Y79.229 E9.78911
G1 X99.982 Y74.945 E9.94157
G1 X105.353 Y79.087 E10.07953
G1 X112.969 Y77.122 E10.23951
G1 X116.054 Y82.681 E10.36882
G1 X123.967 Y83.328 E10.53030
G1 X124.298 Y89.450 E10.65502
G1 X131.304 Y92.602 E10.81128
G1 X128.842 Y98.364 E10.93874
G1 X133.885 Y103.528 E11.08554
G1 X129.006 Y108.050 E11.22085
G1 X131.328 Y114.459 E11.35949
G1 X124.769 Y117.062 E11.50302
G1 X124.009 Y123.746 E11.63984
G1 X117.085 Y124.019 E11.78078
G1 X116.476 Y122.922 E11.80630
G1 X116.369 Y122.593 E11.81334
G1 X116.342 Y122.488 E11.81555
G1 X116.351 Y122.093 E11.82358
G1 X116.469 Y121.732 E11.83129
G1 X116.674 Y121.431 E11.83871
G1 X116.921 Y121.196 E11.84565
G1 X119.461 Y119.200 E11.91136
G1 X121.573 Y117.070 E11.97237
G1 X123.377 Y114.714 E12.03273
G1 X124.201 Y113.383 E12.06457
G1 X124.913 Y112.012 E12.09599
G1 X125.466 Y110.739 E12.12422
G1 X125.968 Y109.306 E12.15510
G1 X126.356 Y107.851 E12.18573
G1 X126.769 Y105.215 E12.24000
G1 X126.845 Y103.716 E12.27054
G1 X126.797 Y102.223 E12.30092
G1 X126.421 Y99.561 E12.35560
G1 X126.178 Y98.540 E12.37695
G1 X125.558 Y96.604 E12.41830
G1 X125.018 Y95.315 E12.44672
G1 X124.349 Y93.985 E12.47700
G1 X123.571 Y92.683 E12.50785
G1 X122.712 Y91.444 E12.53852
G1 X121.888 Y90.402 E12.56555
G1 X120.724 Y89.115 E12.60084
G1 X118.462 Y87.063 E12.66298
G1 X115.843 Y85.216 E12.72816
G1 X113.768 Y84.066 E12.77642
G1 X111.635 Y83.085 E12.82418
G1 X109.211 Y82.230 E12.87646
G1 X106.807 Y81.582 E12.92709
G1 X104.724 Y81.198 E12.97018
G1 X102.688 Y80.967 E13.01186
G1 X100.137 Y80.843 E13.06381
G1 X98.432 Y80.885 E13.09849
G1 X96.771 Y81.010 E13.13239
G1 X94.502 Y81.333 E13.17900
G1 X91.860 Y81.914 E13.23403
G1 X89.179 Y82.841 E13.29172
G1 X88.816 Y82.950 E13.29944
G1 X88.094 Y83.235 E13.31522
G1 X85.705 Y84.360 E13.36894
G1 X85.293 Y84.572 E13.37837
G1 X84.360 Y85.107 E13.40024
G1 X84.058 Y85.301 E13.40754
G1 X82.058 Y86.682 E13.45697
G1 X81.484 Y87.134 E13.47183
G1 X80.559 Y87.907 E13.49635
G1 X78.393 Y90.107 E13.55915
G1 X77.440 Y91.276 E13.58982
G1 X76.571 Y92.508 E13.62050
G1 X75.800 Y93.769 E13.65056
G1 X75.119 Y95.086 E13.68071
G1 X74.541 Y96.419 E13.71026
G1 X74.113 Y97.637 E13.73654
G1 X73.679 Y99.201 E13.76954
G1 X73.609 Y99.513 E13.77606
G1 X73.240 Y102.002 E13.82723
G1 X73.178 Y103.437 E13.85644
G1 X73.212 Y104.535 E13.87880
G1 X73.258 Y105.195 E13.89225
G1 X73.373 Y106.296 E13.91476
G1 X73.952 Y108.974 E13.97049
G1 X74.409 Y110.332 E13.99964
G1 X75.027 Y111.829 E14.03259
G1 X75.699 Y113.151 E14.06276
G1 X76.393 Y114.320 E14.09040
G1 X76.639 Y114.696 E14.09954
G1 X77.566 Y115.991 E14.13193
G1 X79.275 Y117.964 E14.18503
G1 X80.831 Y119.424 E14.22842
G1 X82.813 Y120.990 E14.27981
G1 X84.355 Y122.022 E14.31756
G1 X84.564 Y122.254 E14.32390
G1 X84.694 Y122.529 E14.33008
G1 X84.727 Y122.795 E14.33554
G1 X84.683 Y123.043 E14.34067
G1 X84.486 Y123.397 E14.34890
G1 X83.652 Y124.396 E14.37539
G1 X76.053 Y123.779 E14.53046
G1 X75.729 Y117.656 E14.65519
G1 X68.717 Y114.506 E14.81156
G1 X70.555 Y110.207 E14.90666
G1 X71.195 Y108.763 E14.93879
G1 X66.136 Y103.580 E15.08610
G1 X71.018 Y99.068 E15.22132
G1 X68.692 Y92.649 E15.36019
G1 X75.250 Y90.055 E15.50365
G1 X76.000 Y83.448 E15.63891
G1 X76.506 Y83.656 F4800.000
G1 X76.527 Y83.919
G1 X83.587 Y83.650 F1680.000 E15.78263
G1 X87.251 Y77.820 E15.92269
G1 X93.930 Y79.862 E16.06476
G1 X99.965 Y75.660 E16.21433
G1 X105.224 Y79.716 E16.34943
G1 X112.682 Y77.792 E16.50608
G1 X115.699 Y83.231 E16.63259
G1 X123.418 Y83.862 E16.79013
G1 X123.740 Y89.832 E16.91174
G1 X130.552 Y92.896 E17.06367
G1 X128.160 Y98.493 E17.18747
G1 X133.060 Y103.508 E17.33008
G1 X128.333 Y107.888 E17.46114
G1 X130.596 Y114.130 E17.59620
G1 X124.234 Y116.654 E17.73540
G1 X123.492 Y123.190 E17.86919
G1 X117.417 Y123.428 E17.99286
G1 X117.007 Y122.691 E18.01003
G1 X116.920 Y122.422 E18.01577
G1 X116.925 Y122.192 E18.02044
G1 X116.993 Y121.985 E18.02488
G1 X117.100 Y121.822 E18.02884
G1 X117.299 Y121.632 E18.03443
G1 X119.853 Y119.624 E18.10053
G1 X121.993 Y117.466 E18.16234
G1 X123.842 Y115.056 E18.22413
G1 X124.704 Y113.667 E18.25737
G1 X125.434 Y112.261 E18.28962
G1 X125.999 Y110.958 E18.31849
G1 X126.519 Y109.476 E18.35044
G1 X126.915 Y107.992 E18.38169
G1 X127.340 Y105.292 E18.43728
G1 X127.421 Y103.735 E18.46900
G1 X127.373 Y102.180 E18.50065
G1 X126.991 Y99.474 E18.55624
G1 X126.734 Y98.386 E18.57896
G1 X126.098 Y96.400 E18.62138
G1 X125.544 Y95.078 E18.65054
G1 X124.859 Y93.713 E18.68160
G1 X124.057 Y92.372 E18.71339
G1 X123.174 Y91.098 E18.74492
G1 X122.325 Y90.025 E18.77275
G1 X121.117 Y88.693 E18.80933
G1 X118.826 Y86.614 E18.87224
G1 X116.126 Y84.713 E18.93940
G1 X114.031 Y83.552 E18.98813
G1 X111.863 Y82.555 E19.03667
G1 X109.381 Y81.678 E19.09021
G1 X106.936 Y81.019 E19.14173
G1 X104.803 Y80.626 E19.18584
G1 X102.747 Y80.394 E19.22793
G1 X100.138 Y80.266 E19.28106
G1 X98.622 Y80.299 E19.31191
G1 X96.709 Y80.436 E19.35092
G1 X94.449 Y80.754 E19.39734
G1 X91.703 Y81.358 E19.45453
G1 X89.002 Y82.292 E19.51267
G1 X88.634 Y82.403 E19.52047
G1 X87.858 Y82.708 E19.53745
G1 X85.450 Y83.843 E19.59159
G1 X85.016 Y84.066 E19.60151
G1 X84.053 Y84.618 E19.62408
G1 X83.743 Y84.817 E19.63159
G1 X81.719 Y86.215 E19.68162
G1 X81.118 Y86.689 E19.69719
G1 X80.169 Y87.481 E19.72234
G1 X78.093 Y89.576 E19.78232
G1 X76.981 Y90.926 E19.81789
G1 X76.086 Y92.197 E19.84952
G1 X75.298 Y93.484 E19.88021
G1 X74.595 Y94.845 E19.91136
G1 X74.004 Y96.207 E19.94157
G1 X73.508 Y97.635 E19.97232
G1 X73.119 Y99.060 E20.00237
G1 X73.042 Y99.409 E20.00963
G1 X72.665 Y101.945 E20.06178
G1 X72.601 Y103.434 E20.09209
G1 X72.658 Y104.925 E20.12246
G1 X72.803 Y106.389 E20.15236
G1 X73.411 Y109.201 E20.21088
G1 X73.931 Y110.703 E20.24322
G1 X74.502 Y112.069 E20.27334
G1 X75.197 Y113.436 E20.30452
G1 X75.909 Y114.633 E20.33286
G1 X76.161 Y115.019 E20.34223
G1 X77.115 Y116.352 E20.37558
G1 X77.249 Y116.513 E20.37983
G1 X78.859 Y118.364 E20.42973
G1 X80.455 Y119.862 E20.47425
G1 X82.468 Y121.454 E20.52647
G1 X83.975 Y122.462 E20.56333
G1 X84.080 Y122.578 E20.56653
G1 X84.173 Y122.774 E20.57093
G1 X84.009 Y123.068 E20.57779
G1 X83.400 Y123.798 E20.59713
G1 X76.601 Y123.246 E20.73586
G1 X76.288 Y117.274 E20.85749
G1 X69.470 Y114.212 E21.00953
G1 X71.084 Y110.437 E21.09304
G1 X71.881 Y108.636 E21.13310
G1 X66.962 Y103.601 E21.27628
G1 X71.694 Y99.230 E21.40732
G1 X71.240 Y98.017 E21.43367
G1 X69.424 Y92.979 E21.54260
G1 X75.788 Y90.464 E21.68178
G1 X76.517 Y84.005 E21.81399
G1 X83.277 Y84.080 F4800.000
G1 X83.603 Y84.406 F1920.000 E21.82337
G1 X83.120 Y84.740 E21.83531
G1 X82.491 Y84.110 E21.85342
G1 X81.704 Y84.140 E21.86944
G1 X82.637 Y85.073 E21.89629
G1 X82.154 Y85.406 E21.90823
G1 X80.918 Y84.170 E21.94383
G1 X80.132 Y84.200 E21.95984
G1 X81.672 Y85.740 E22.00417
G1 X81.204 Y86.089 E22.01604
G1 X79.346 Y84.230 E22.06955
G1 X78.559 Y84.260 E22.08557
G1 X80.751 Y86.451 E22.14864
G1 X80.306 Y86.822 E22.16044
G1 X77.773 Y84.290 E22.23335
G1 X76.987 Y84.320 E22.24936
G1 X79.863 Y87.196 E22.33216
G1 X79.457 Y87.606 E22.34391
G1 X76.826 Y84.975 E22.41963
G1 X76.742 Y85.707 E22.43463
G1 X79.051 Y88.016 E22.50109
G1 X78.644 Y88.426 E22.51283
G1 X76.657 Y86.439 E22.57003
G1 X76.573 Y87.171 E22.58502
G1 X78.238 Y88.836 E22.63296
G1 X77.832 Y89.246 E22.64470
G1 X76.489 Y87.902 E22.68337
G1 X76.404 Y88.634 E22.69836
G1 X77.459 Y89.689 E22.72872
G1 X77.091 Y90.137 E22.74053
G1 X76.321 Y89.367 E22.76268
G1 X76.245 Y90.107 E22.77782
G1 X76.722 Y90.584 E22.79156
G1 X76.109 Y90.787 E22.80471
G1 X76.377 Y91.055 E22.81242
G1 X76.040 Y91.535 E22.82435
G1 X75.524 Y91.018 E22.83921
G1 X74.939 Y91.249 E22.85202
G1 X75.706 Y92.017 E22.87410
