; generated by Slic3r 0.9.10b on 2013-06-26 at 13:39:49

; layer_height = 0.2
; perimeters = 2
; top_solid_layers = 3
; bottom_solid_layers = 3
; fill_density = 0.1
; perimeter_speed = 70
; infill_speed = 100
; travel_speed = 110
; nozzle_diameter = 0.4
; filament_diameter = 2.95
; extrusion_multiplier = 1.0
; perimeters extrusion width = 0.67mm
; infill extrusion width = 0.67mm
; solid infill extrusion width = 0.67mm
; top infill extrusion width = 0.67mm
; first layer extrusion width = 0.44mm

G21 ; set units to millimeters
M107
M104 S200 ; set temperature
G28 ; home all axes
G1 Z5 F5000 ; lift nozzle
M109 S200 ; wait for temperature to be reached
G90 ; use absolute coordinates
G92 E0
M82 ; use absolute distances for extrusion
G1 F2700.000 E-0.85000
G92 E0
G1 Z0.220 F6600.000
G1 X84.665 Y87.348
G1 F2700.000 E0.85000
G1 X85.995 Y86.528 F1260.000 E0.87170
G1 X87.485 Y86.048 E0.89343
G1 X87.855 Y85.978 E0.89866
G1 X88.455 Y85.898 E0.90707
G1 X89.055 Y85.868 E0.91541
G1 X94.475 Y85.868 E0.99067
G1 X110.645 Y85.878 E1.21522
G1 X111.245 Y85.908 E1.22356
G1 X111.845 Y85.988 E1.23196
G1 X112.215 Y86.058 E1.23719
G1 X113.705 Y86.538 E1.25893
G1 X115.035 Y87.358 E1.28063
G1 X116.135 Y88.478 E1.30243
G1 X116.295 Y88.688 E1.30609
G1 X117.005 Y89.868 E1.32521
G1 X117.445 Y91.168 E1.34427
G1 X117.515 Y91.478 E1.34869
G1 X117.655 Y92.338 E1.36079
G1 X117.725 Y93.138 E1.37194
G1 X117.745 Y93.698 E1.37972
G1 X117.745 Y104.278 E1.52663
G1 X117.725 Y104.838 E1.53442
G1 X117.655 Y105.638 E1.54557
G1 X117.515 Y106.498 E1.55767
G1 X117.445 Y106.808 E1.56208
G1 X117.005 Y108.108 E1.58114
G1 X116.295 Y109.288 E1.60026
G1 X116.135 Y109.498 E1.60393
G1 X115.035 Y110.618 E1.62573
G1 X113.705 Y111.438 E1.64742
G1 X103.905 Y115.958 E1.79729
G1 X103.435 Y116.148 E1.80433
G1 X102.475 Y116.458 E1.81833
G1 X102.085 Y116.548 E1.82389
G1 X101.065 Y116.708 E1.83823
G1 X100.405 Y116.758 E1.84742
G1 X99.295 Y116.758 E1.86283
G1 X98.635 Y116.708 E1.87203
G1 X98.245 Y116.658 E1.87749
G1 X97.585 Y116.538 E1.88680
G1 X97.205 Y116.448 E1.89222
G1 X96.275 Y116.148 E1.90579
G1 X95.805 Y115.958 E1.91283
G1 X85.995 Y111.448 E2.06276
G1 X84.665 Y110.628 E2.08446
G1 X83.565 Y109.508 E2.10626
G1 X83.405 Y109.298 E2.10992
G1 X82.695 Y108.118 E2.12905
G1 X82.255 Y106.818 E2.14811
G1 X82.185 Y106.508 E2.15252
G1 X82.045 Y105.568 E2.16572
G1 X81.965 Y104.288 E2.18353
G1 X81.965 Y93.688 E2.33072
G1 X82.045 Y92.408 E2.34853
G1 X82.185 Y91.468 E2.36173
G1 X82.255 Y91.158 E2.36614
G1 X82.695 Y89.858 E2.38520
G1 X83.405 Y88.678 E2.40432
G1 X83.565 Y88.468 E2.40799
G1 X84.620 Y87.394 E2.42889
G1 F2700.000 E1.57889
G92 E0
G1 X89.106 Y92.950 F6600.000
G1 F2700.000 E0.85000
G1 X110.610 Y92.961 F1260.000 E1.14861
G1 X110.674 Y93.727 E1.15928
G1 X110.674 Y100.102 E1.24780
G1 X110.639 Y100.458 E1.25277
G1 X110.674 Y100.864 E1.25843
G1 X110.674 Y104.259 E1.30558
G1 X110.610 Y105.025 E1.31625
G1 X101.048 Y105.029 E1.44904
G1 X101.746 Y106.190 E1.46786
G1 X101.890 Y106.553 E1.47327
G1 X101.957 Y106.819 E1.47708
G1 X101.986 Y107.104 E1.48107
G1 X101.974 Y107.425 E1.48552
G1 X101.917 Y107.762 E1.49027
G1 X101.778 Y108.211 E1.49680
G1 X101.607 Y108.636 E1.50316
G1 X101.331 Y109.145 E1.51120
G1 X101.139 Y109.389 E1.51552
G1 X101.045 Y109.476 E1.51729
G1 X100.941 Y109.536 E1.51895
G1 X100.700 Y109.611 E1.52247
G1 X100.197 Y109.685 E1.52952
G1 X99.858 Y109.700 E1.53423
G1 X99.519 Y109.685 E1.53894
G1 X99.017 Y109.611 E1.54599
G1 X98.775 Y109.536 E1.54951
G1 X98.671 Y109.476 E1.55117
G1 X98.578 Y109.389 E1.55294
G1 X98.386 Y109.146 E1.55725
G1 X98.111 Y108.637 E1.56528
G1 X97.939 Y108.211 E1.57166
G1 X97.800 Y107.762 E1.57819
G1 X97.743 Y107.425 E1.58293
G1 X97.731 Y107.105 E1.58738
G1 X97.760 Y106.818 E1.59139
G1 X97.827 Y106.553 E1.59519
G1 X97.971 Y106.190 E1.60060
G1 X98.666 Y105.031 E1.61938
G1 X89.106 Y105.036 E1.75212
G1 X89.042 Y104.267 E1.76283
G1 X89.042 Y93.719 E1.90930
G1 X89.101 Y93.015 E1.91912
G1 X88.675 Y92.927 F6600.000
G1 X88.734 Y92.674 F945.000 E1.92272
G1 X88.814 Y92.569 E1.92455
G1 X89.083 Y92.519 E1.92835
G1 X110.634 Y92.530 E2.22761
G1 X110.903 Y92.580 E2.23142
G1 X110.982 Y92.685 E2.23325
G1 X111.041 Y92.937 E2.23684
G1 X111.106 Y93.709 E2.24760
G1 X111.106 Y100.123 E2.33666
G1 X111.073 Y100.461 E2.34137
G1 X111.106 Y100.845 E2.34674
G1 X111.106 Y104.277 E2.39439
G1 X111.041 Y105.049 E2.40515
G1 X110.982 Y105.302 E2.40875
G1 X110.903 Y105.407 E2.41058
G1 X110.634 Y105.457 E2.41438
G1 X101.810 Y105.459 E2.53691
G1 X102.190 Y106.120 E2.54750
G1 X102.347 Y106.582 E2.55427
G1 X102.406 Y106.915 E2.55896
G1 X102.417 Y107.276 E2.56399
G1 X102.356 Y107.769 E2.57087
G1 X102.206 Y108.297 E2.57850
G1 X102.035 Y108.734 E2.58502
G1 X101.826 Y109.162 E2.59163
G1 X101.696 Y109.375 E2.59509
G1 X101.549 Y109.578 E2.59858
G1 X101.289 Y109.834 E2.60364
G1 X101.127 Y109.927 E2.60624
G1 X100.791 Y110.033 E2.61113
G1 X100.234 Y110.115 E2.61895
G1 X99.858 Y110.131 E2.62417
G1 X99.483 Y110.115 E2.62939
G1 X98.926 Y110.033 E2.63720
G1 X98.590 Y109.927 E2.64210
G1 X98.428 Y109.834 E2.64469
G1 X98.168 Y109.578 E2.64976
G1 X98.021 Y109.375 E2.65324
G1 X97.891 Y109.162 E2.65670
G1 X97.682 Y108.735 E2.66331
G1 X97.511 Y108.297 E2.66984
G1 X97.381 Y107.866 E2.67609
G1 X97.314 Y107.469 E2.68168
G1 X97.299 Y107.092 E2.68692
G1 X97.335 Y106.744 E2.69178
G1 X97.469 Y106.268 E2.69865
G1 X97.591 Y105.986 E2.70291
G1 X97.904 Y105.463 E2.71137
G1 X89.083 Y105.467 E2.83386
G1 X88.814 Y105.417 E2.83766
G1 X88.734 Y105.311 E2.83950
G1 X88.675 Y105.059 E2.84310
G1 X88.611 Y104.285 E2.85388
G1 X88.611 Y93.701 E3.00085
G1 X88.670 Y92.991 E3.01074
G1 X88.920 Y92.840 F6600.000
G1 X89.536 Y104.723
G1 X89.375 Y104.493 F1620.000 E3.01465
G1 X90.064 Y104.723 E3.02476
G1 X89.355 Y103.710 E3.04196
G1 X89.355 Y102.956 E3.05246
G1 X90.592 Y104.722 E3.08247
G1 X91.119 Y104.722 E3.08981
G1 X89.355 Y102.202 E3.13264
G1 X89.355 Y101.448 E3.14313
G1 X91.647 Y104.722 E3.19876
G1 X92.175 Y104.721 E3.20611
G1 X89.355 Y100.694 E3.27455
G1 X89.355 Y99.940 E3.28505
G1 X92.703 Y104.721 E3.36629
G1 X93.230 Y104.721 E3.37364
G1 X89.355 Y99.186 E3.46770
G1 X89.355 Y98.432 E3.47820
G1 X93.758 Y104.721 E3.58506
G1 X94.286 Y104.720 E3.59241
G1 X89.355 Y97.678 E3.71209
G1 X89.355 Y96.924 E3.72259
G1 X94.814 Y104.720 E3.85507
G1 X95.341 Y104.720 E3.86242
G1 X89.355 Y96.170 E4.00771
G1 X89.355 Y95.416 E4.01821
G1 X95.869 Y104.719 E4.17632
G1 X96.397 Y104.719 E4.18366
G1 X89.355 Y94.662 E4.35458
G1 X89.355 Y93.908 E4.36507
G1 X96.925 Y104.719 E4.54880
G1 X97.453 Y104.718 E4.55614
G1 X89.431 Y93.263 E4.75083
G1 X89.959 Y93.263 E4.75818
G1 X97.980 Y104.718 E4.95286
G1 X98.508 Y104.718 E4.96021
G1 X90.487 Y93.263 E5.15488
G1 X91.015 Y93.263 E5.16223
G1 X99.036 Y104.718 E5.35690
G1 X99.134 Y104.858 F6600.000
G1 X101.455 Y108.172 F1620.000 E5.41323
G1 X101.255 Y108.640 E5.42032
G1 X98.890 Y105.264 E5.47770
G1 X98.647 Y105.670 E5.48430
G1 X101.014 Y109.051 E5.54175
G1 X100.658 Y109.297 E5.54777
G1 X98.403 Y106.077 E5.60250
G1 X98.176 Y106.505 E5.60926
G1 X100.183 Y109.372 E5.65798
G1 X99.659 Y109.378 E5.66526
G1 X98.049 Y107.079 E5.70434
G1 X98.229 Y108.089 E5.71862
G1 X99.079 Y109.304 E5.73926
G1 X101.614 Y107.645 F6600.000
G1 X91.543 Y93.263 F1620.000 E5.98369
G1 X92.071 Y93.263 E5.99104
G1 X101.658 Y106.955 E6.22373
G1 X101.675 Y104.716 F6600.000
G1 X93.655 Y93.263 F1620.000 E6.41838
G1 X94.183 Y93.263 E6.42573
G1 X102.203 Y104.716 E6.62037
G1 X102.730 Y104.716 E6.62772
G1 X94.711 Y93.263 E6.82236
G1 X95.239 Y93.263 E6.82971
G1 X103.258 Y104.716 E7.02434
G1 X103.786 Y104.715 E7.03168
G1 X95.768 Y93.264 E7.22630
G1 X96.296 Y93.264 E7.23365
G1 X104.314 Y104.715 E7.42826
G1 X104.842 Y104.715 E7.43561
G1 X96.824 Y93.264 E7.63021
G1 X97.352 Y93.265 E7.63756
G1 X105.370 Y104.715 E7.83215
G1 X105.897 Y104.714 E7.83949
G1 X97.880 Y93.265 E8.03407
G1 X98.409 Y93.265 E8.04143
G1 X106.425 Y104.714 E8.23599
G1 X106.953 Y104.714 E8.24334
G1 X98.937 Y93.266 E8.43790
G1 X99.465 Y93.266 E8.44525
G1 X107.481 Y104.714 E8.63980
G1 X108.009 Y104.714 E8.64715
G1 X99.993 Y93.267 E8.84168
G1 X100.522 Y93.267 E8.84904
G1 X108.537 Y104.713 E9.04356
G1 X109.064 Y104.713 E9.05091
G1 X101.050 Y93.267 E9.24543
G1 X101.578 Y93.268 E9.25278
G1 X109.592 Y104.713 E9.44729
G1 X110.120 Y104.713 E9.45464
G1 X102.106 Y93.268 E9.64914
G1 X102.635 Y93.268 E9.65649
G1 X110.357 Y104.298 E9.84393
G1 X110.362 Y103.550 E9.85434
G1 X103.163 Y93.269 E10.02906
G1 X103.691 Y93.269 E10.03641
G1 X110.362 Y102.796 E10.19831
G1 X110.362 Y102.042 E10.20881
G1 X104.219 Y93.269 E10.35789
G1 X104.748 Y93.270 E10.36524
G1 X110.362 Y101.288 E10.50150
G1 X110.328 Y100.485 E10.51268
G1 X105.276 Y93.270 E10.63530
G1 X105.804 Y93.271 E10.64265
G1 X110.362 Y99.780 E10.75327
G1 X110.362 Y99.026 E10.76377
G1 X106.332 Y93.271 E10.86156
G1 X106.861 Y93.271 E10.86892
G1 X110.362 Y98.271 E10.95389
G1 X110.362 Y97.517 E10.96439
G1 X107.389 Y93.272 E11.03654
G1 X107.917 Y93.272 E11.04390
G1 X110.362 Y96.763 E11.10323
G1 X110.362 Y96.009 E11.11373
G1 X108.445 Y93.272 E11.16024
G1 X108.973 Y93.273 E11.16760
G1 X110.362 Y95.255 E11.20129
G1 X110.362 Y94.501 E11.21179
G1 X109.502 Y93.273 E11.23266
G1 X110.030 Y93.273 E11.24001
G1 X110.362 Y93.747 E11.24806
G1 X101.147 Y104.716 F6600.000
G1 X93.127 Y93.263 F1620.000 E11.44271
G1 X92.599 Y93.263 E11.45006
G1 X100.619 Y104.717 E11.64472
M106 S255
G1 F2700.000 E10.79472
G92 E0
G1 Z0.420 F6600.000
G1 X100.987 Y104.724
G1 F2700.000 E0.85000
G1 X101.684 Y106.244 F1800.000 E0.88074
G1 X101.764 Y106.466 E0.88507
G1 X101.822 Y106.697 E0.88946
G1 X101.849 Y106.939 E0.89393
G1 X101.841 Y107.217 E0.89905
G1 X101.794 Y107.521 E0.90471
G1 X101.677 Y107.930 E0.91252
G1 X101.513 Y108.346 E0.92075
G1 X101.296 Y108.768 E0.92948
G1 X101.109 Y109.026 E0.93533
G1 X100.987 Y109.140 E0.93840
G1 X100.792 Y109.217 E0.94225
G1 X100.329 Y109.299 E0.95091
G1 X99.858 Y109.330 E0.95958
G1 X99.388 Y109.299 E0.96824
G1 X98.924 Y109.217 E0.97690
G1 X98.730 Y109.140 E0.98075
G1 X98.608 Y109.027 E0.98380
G1 X98.422 Y108.770 E0.98964
G1 X98.204 Y108.346 E0.99840
G1 X98.040 Y107.930 E1.00663
G1 X97.922 Y107.521 E1.01444
G1 X97.875 Y107.217 E1.02011
G1 X97.868 Y106.939 E1.02523
G1 X97.894 Y106.697 E1.02970
G1 X97.953 Y106.465 E1.03410
G1 X98.033 Y106.244 E1.03842
G1 X98.728 Y104.725 E1.06913
G1 X89.378 Y104.727 E1.24103
G1 X89.338 Y104.241 E1.24999
G1 X89.338 Y101.529 E1.29984
G1 X89.450 Y100.904 E1.31153
G1 X89.338 Y100.547 E1.31841
G1 X89.338 Y93.745 E1.44346
G1 X89.378 Y93.259 E1.45242
G1 X110.339 Y93.264 E1.83779
G1 X110.379 Y93.747 E1.84670
G1 X110.379 Y101.434 E1.98803
G1 X110.340 Y101.609 E1.99133
G1 X110.106 Y102.175 E2.00260
G1 X110.179 Y102.997 E2.01777
G1 X110.284 Y103.462 E2.02653
G1 X110.372 Y104.325 E2.04248
G1 X110.339 Y104.724 E2.04984
G1 X101.081 Y104.724 E2.22004
G1 X101.966 Y105.351 F6600.000
G1 X102.263 Y105.998 F1800.000 E2.23314
G1 X102.365 Y106.281 E2.23865
G1 X102.441 Y106.585 E2.24443
G1 X102.477 Y106.914 E2.25051
G1 X102.467 Y107.275 E2.25715
G1 X102.408 Y107.660 E2.26430
G1 X102.269 Y108.140 E2.27349
G1 X102.046 Y108.693 E2.28445
G1 X101.902 Y108.976 E2.29030
G1 X101.722 Y109.267 E2.29659
G1 X101.558 Y109.467 E2.30135
G1 X101.384 Y109.629 E2.30571
G1 X101.260 Y109.708 E2.30842
G1 X100.947 Y109.827 E2.31457
G1 X100.590 Y109.897 E2.32127
G1 X100.224 Y109.943 E2.32804
G1 X99.858 Y109.959 E2.33478
G1 X99.493 Y109.943 E2.34150
G1 X99.127 Y109.897 E2.34827
G1 X98.770 Y109.827 E2.35497
G1 X98.457 Y109.708 E2.36112
G1 X98.333 Y109.629 E2.36383
G1 X98.159 Y109.468 E2.36819
G1 X97.995 Y109.268 E2.37295
G1 X97.815 Y108.976 E2.37925
G1 X97.671 Y108.693 E2.38508
G1 X97.448 Y108.140 E2.39606
G1 X97.309 Y107.660 E2.40524
G1 X97.250 Y107.275 E2.41240
G1 X97.239 Y106.914 E2.41903
G1 X97.276 Y106.585 E2.42512
G1 X97.352 Y106.280 E2.43090
G1 X97.454 Y105.998 E2.43641
G1 X97.749 Y105.353 E2.44945
G1 X89.092 Y105.355 E2.60862
G1 X88.838 Y105.307 E2.61338
G1 X88.773 Y105.030 E2.61862
G1 X88.709 Y104.267 E2.63269
G1 X88.709 Y101.461 E2.68428
G1 X88.804 Y100.945 E2.69393
G1 X88.709 Y100.597 E2.70056
G1 X88.709 Y93.719 E2.82701
G1 X88.773 Y92.956 E2.84109
G1 X88.838 Y92.679 E2.84633
G1 X89.092 Y92.631 E2.85109
G1 X94.476 Y92.631 E2.95007
G1 X110.625 Y92.636 E3.24697
G1 X110.879 Y92.683 E3.25174
G1 X110.944 Y92.960 E3.25696
G1 X111.007 Y93.721 E3.27099
G1 X111.007 Y101.503 E3.41407
G1 X110.941 Y101.799 E3.41964
G1 X110.745 Y102.273 E3.42908
G1 X110.801 Y102.900 E3.44066
G1 X110.905 Y103.361 E3.44933
G1 X111.002 Y104.306 E3.46680
G1 X110.944 Y105.028 E3.48012
G1 X110.879 Y105.305 E3.48535
G1 X110.625 Y105.352 E3.49011
G1 X102.060 Y105.351 E3.64757
G1 X101.363 Y105.528 F6600.000
G1 X100.442 Y104.270
G1 X109.924 Y97.631 F1800.000 E3.86080
G1 X109.924 Y98.400 E3.87496
G1 X101.540 Y104.270 E4.06350
G1 X102.638 Y104.269 E4.08373
G1 X109.924 Y99.168 E4.24758
G1 X109.924 Y99.937 E4.26174
G1 X103.736 Y104.269 E4.40090
G1 X104.834 Y104.269 E4.42112
G1 X109.924 Y100.705 E4.53559
G1 X109.895 Y101.494 E4.55013
G1 X105.932 Y104.269 E4.63926
G1 X107.030 Y104.269 E4.65948
G1 X109.670 Y102.420 E4.71887
G1 X109.744 Y103.137 E4.73215
G1 X108.128 Y104.269 E4.76850
G1 X109.225 Y104.268 E4.78872
G1 X109.863 Y103.822 E4.80305
G1 X100.318 Y104.357 F6600.000
G1 X98.966 Y105.303 F1800.000 E4.83345
G1 X99.345 Y104.269 E4.85374
G1 X109.924 Y96.862 E5.09164
G1 X109.924 Y96.094 E5.10580
G1 X98.247 Y104.270 E5.36841
G1 X97.149 Y104.270 E5.38863
G1 X109.924 Y95.325 E5.67593
G1 X109.924 Y94.557 E5.69009
G1 X96.051 Y104.270 E6.00208
G1 X94.953 Y104.270 E6.02231
G1 X109.924 Y93.788 E6.35899
G1 X108.925 Y93.719 E6.37744
G1 X93.855 Y104.271 E6.71635
G1 X92.757 Y104.271 E6.73658
G1 X107.827 Y93.719 E7.07551
G1 X106.730 Y93.718 E7.09572
G1 X91.659 Y104.271 E7.43466
G1 X90.561 Y104.271 E7.45489
G1 X105.633 Y93.718 E7.79385
G1 X104.536 Y93.718 E7.81407
G1 X89.793 Y104.041 E8.14563
G1 X89.793 Y103.272 E8.15979
G1 X103.439 Y93.717 E8.46668
G1 X102.341 Y93.717 E8.48689
G1 X89.793 Y102.503 E8.76911
G1 X89.793 Y101.735 E8.78327
G1 X101.244 Y93.717 E9.04080
G1 X100.147 Y93.716 E9.06101
G1 X89.917 Y100.880 E9.29109
G1 X89.793 Y100.198 E9.30386
G1 X99.050 Y93.716 E9.51204
G1 X97.953 Y93.716 E9.53225
G1 X89.793 Y99.429 E9.71576
G1 X89.793 Y98.660 E9.72992
G1 X96.855 Y93.715 E9.88875
G1 X95.758 Y93.715 E9.90896
G1 X89.793 Y97.892 E10.04312
G1 X89.793 Y97.123 E10.05728
G1 X94.661 Y93.715 E10.16675
G1 X93.563 Y93.715 E10.18698
G1 X89.793 Y96.355 E10.27177
G1 X89.793 Y95.586 E10.28593
G1 X92.466 Y93.715 E10.34603
G1 X91.368 Y93.715 E10.36626
G1 X89.793 Y94.817 E10.40168
G1 X89.793 Y94.049 E10.41583
G1 X90.270 Y93.715 E10.42657
G1 X98.454 Y106.431 F6600.000
G1 X100.583 Y104.940 F1800.000 E10.47447
G1 X100.849 Y105.522 E10.48627
G1 X98.343 Y107.277 E10.54263
G1 X98.526 Y107.918 E10.55490
G1 X101.115 Y106.105 E10.61312
G1 X101.347 Y106.711 E10.62508
G1 X98.794 Y108.498 E10.68250
G1 X99.403 Y108.840 E10.69537
G1 X101.322 Y107.497 E10.73853
G1 X100.871 Y108.581 E10.76016
G1 X100.559 Y108.800 E10.76718
G1 F2700.000 E9.91718
G92 E0
G1 Z0.620 F6600.000
G1 X100.652 Y109.162
G1 F2700.000 E0.85000
G1 X100.168 Y109.230 F1800.000 E0.85899
G1 X99.703 Y109.240 E0.86755
G1 X99.231 Y109.191 E0.87627
G1 X98.833 Y109.111 E0.88373
G1 X98.639 Y109.016 E0.88769
G1 X98.453 Y108.863 E0.89214
G1 X98.334 Y108.710 E0.89569
G1 X98.158 Y108.409 E0.90210
G1 X97.926 Y107.874 E0.91283
G1 X97.813 Y107.521 E0.91965
G1 X97.748 Y107.213 E0.92544
G1 X97.730 Y106.782 E0.93337
G1 X97.759 Y106.534 E0.93796
G1 X97.829 Y106.268 E0.94302
G1 X98.419 Y104.711 E0.97363
G1 X89.378 Y104.711 E1.13986
G1 X89.338 Y104.222 E1.14887
G1 X89.338 Y103.099 E1.16953
G1 X89.631 Y102.127 E1.18820
G1 X89.338 Y101.481 E1.20125
G1 X89.338 Y97.669 E1.27132
G1 X89.376 Y97.587 E1.27299
G1 X89.425 Y97.116 E1.28170
G1 X89.338 Y96.906 E1.28587
G1 X89.338 Y93.764 E1.34364
G1 X89.378 Y93.275 E1.35266
G1 X108.866 Y93.274 E1.71096
G1 X109.333 Y93.347 E1.71965
G1 X110.128 Y93.347 E1.73425
G1 X110.152 Y94.177 E1.74952
G1 X110.379 Y94.791 E1.76157
G1 X110.379 Y103.005 E1.91258
G1 X109.966 Y104.522 E1.94148
G1 X107.245 Y104.520 E1.99151
G1 X106.089 Y104.710 E2.01305
G1 X101.295 Y104.713 E2.10118
