; generated by Slic3r 0.9.10b on 2013-07-08 at 13:34:51

; layer_height = 0.1
; perimeters = 2
; top_solid_layers = 3
; bottom_solid_layers = 3
; fill_density = 0.1
; perimeter_speed = 35
; infill_speed = 50
; travel_speed = 110
; nozzle_diameter = 0.4
; filament_diameter = 2.95
; extrusion_multiplier = 6
; perimeters extrusion width = 0.68mm
; infill extrusion width = 1.28mm
; solid infill extrusion width = 0.68mm
; top infill extrusion width = 0.68mm
; first layer extrusion width = 0.40mm

G21 ; set units to millimeters
M107
M104 S240 ; set temperature
G28 ; home all axes
G1 Z5 F5000 ; lift nozzle
M109 S240 ; wait for temperature to be reached
G90 ; use absolute coordinates
G92 E0
M82 ; use absolute distances for extrusion
G1 F2700.000 E-0.85000
G92 E0
G1 Z0.200 F6600.000
G1 X75.629 Y77.919
G1 F2700.000 E0.85000
G1 X76.599 Y77.129 F630.000 E0.93785
G1 X77.699 Y76.539 E1.02552
G1 X78.899 Y76.179 E1.11350
G1 X80.139 Y76.059 E1.20099
G1 X119.849 Y76.059 E3.98972
G1 X121.089 Y76.179 E4.07721
G1 X122.279 Y76.539 E4.16452
G1 X123.389 Y77.129 E4.25280
G1 X124.349 Y77.909 E4.33967
G1 X125.149 Y78.869 E4.42743
G1 X125.739 Y79.969 E4.51509
G1 X126.119 Y81.159 E4.60282
G1 X126.249 Y82.399 E4.69038
G1 X126.299 Y87.499 E5.04855
G1 X126.299 Y112.489 E6.80354
G1 X126.249 Y117.599 E7.16242
G1 X126.119 Y118.839 E7.24998
G1 X125.739 Y120.029 E7.33771
G1 X125.149 Y121.129 E7.42537
G1 X124.349 Y122.089 E7.51313
G1 X123.389 Y122.869 E7.59999
G1 X122.279 Y123.459 E7.68827
G1 X121.089 Y123.819 E7.77559
G1 X119.849 Y123.939 E7.86307
G1 X80.139 Y123.939 E10.65181
G1 X78.899 Y123.819 E10.73930
G1 X77.699 Y123.459 E10.82728
G1 X76.599 Y122.869 E10.91494
G1 X75.629 Y122.079 E11.00280
G1 X74.839 Y121.119 E11.09011
G1 X74.239 Y120.029 E11.17749
G1 X73.869 Y118.829 E11.26568
G1 X73.739 Y117.589 E11.35323
G1 X73.699 Y112.749 E11.69315
G1 X73.699 Y87.239 E13.48465
G1 X73.739 Y82.409 E13.82386
G1 X73.869 Y81.169 E13.91142
G1 X74.239 Y79.969 E13.99961
G1 X74.839 Y78.879 E14.08699
G1 X75.591 Y77.965 E14.17009
G1 F2700.000 E13.32009
G92 E0
G1 X85.076 Y88.145 F6600.000
G1 F2700.000 E0.85000
G1 X112.804 Y88.145 F630.000 E2.79727
G1 X112.804 Y111.855 E4.46230
G1 X85.076 Y111.855 E6.40957
G1 X85.076 Y88.205 E8.07038
G1 X85.477 Y88.546 F6600.000
G1 X112.403 Y88.546 F472.500 E9.96135
G1 X112.403 Y111.454 E11.57009
G1 X85.477 Y111.454 E13.46106
G1 X85.477 Y88.606 E15.06558
G1 X85.823 Y88.746 F6600.000
G1 X80.703 Y87.294
G1 X80.743 Y83.059 F630.000 E15.36304
G1 X119.257 Y83.059 E18.06781
G1 X119.302 Y87.572 E18.38475
G1 X119.302 Y112.428 E20.13036
G1 X119.257 Y116.941 E20.44731
G1 X80.743 Y116.941 E23.15208
G1 X80.703 Y112.706 E23.44954
G1 X80.703 Y87.354 E25.22991
G1 X80.303 Y87.292 F6600.000
G1 X80.347 Y82.659 F472.500 E25.55533
G1 X119.653 Y82.659 E28.31574
G1 X119.702 Y87.570 E28.66064
G1 X119.702 Y112.430 E30.40653
G1 X119.653 Y117.341 E30.75143
G1 X80.347 Y117.341 E33.51184
G1 X80.303 Y112.708 E33.83726
G1 X80.303 Y87.352 E35.61790
G1 X80.651 Y87.095 F6600.000
G1 X84.785 Y111.861
G1 X80.993 Y106.445 F810.000 E36.08341
G1 X80.993 Y105.746 E36.13264
G1 X84.785 Y111.162 E36.59815
G1 X84.785 Y110.463 E36.64738
G1 X80.993 Y105.047 E37.11289
G1 X80.993 Y104.348 E37.16213
G1 X84.785 Y109.763 E37.62763
G1 X84.785 Y109.064 E37.67687
G1 X80.993 Y103.649 E38.14238
G1 X80.993 Y102.949 E38.19161
G1 X84.785 Y108.365 E38.65712
G1 X84.785 Y107.666 E38.70635
G1 X80.993 Y102.250 E39.17186
G1 X80.993 Y101.551 E39.22109
G1 X84.785 Y106.966 E39.68660
G1 X84.785 Y106.267 E39.73584
G1 X80.993 Y100.852 E40.20135
G1 X80.993 Y100.152 E40.25058
G1 X84.785 Y105.568 E40.71609
G1 X84.785 Y104.869 E40.76532
G1 X80.993 Y99.453 E41.23083
G1 X80.993 Y98.754 E41.28006
G1 X84.785 Y104.170 E41.74557
G1 X84.785 Y103.470 E41.79481
G1 X80.993 Y98.055 E42.26032
G1 X80.993 Y97.356 E42.30955
G1 X84.785 Y102.771 E42.77506
G1 X84.785 Y102.072 E42.82429
G1 X80.993 Y96.656 E43.28980
G1 X80.993 Y95.957 E43.33903
G1 X84.785 Y101.373 E43.80454
G1 X84.785 Y100.674 E43.85378
G1 X80.993 Y95.258 E44.31928
G1 X80.993 Y94.559 E44.36852
G1 X84.785 Y99.974 E44.83403
G1 X84.785 Y99.275 E44.88326
G1 X80.993 Y93.860 E45.34877
G1 X80.993 Y93.160 E45.39800
G1 X84.785 Y98.576 E45.86351
G1 X84.785 Y97.877 E45.91274
G1 X80.993 Y92.461 E46.37825
G1 X80.993 Y91.762 E46.42749
G1 X84.785 Y97.177 E46.89300
G1 X84.785 Y96.478 E46.94223
G1 X80.993 Y91.063 E47.40774
G1 X80.993 Y90.363 E47.45697
G1 X84.785 Y95.779 E47.92248
G1 X84.785 Y95.080 E47.97171
G1 X80.993 Y89.664 E48.43722
G1 X80.993 Y88.965 E48.48646
G1 X84.785 Y94.381 E48.95196
G1 X84.785 Y93.681 E49.00120
G1 X80.993 Y88.266 E49.46671
G1 X80.993 Y87.567 E49.51594
G1 X84.785 Y92.982 E49.98145
G1 X84.785 Y92.283 E50.03068
G1 X80.997 Y86.873 E50.49571
G1 X81.004 Y86.183 E50.54429
G1 X84.785 Y91.584 E51.00853
G1 X84.785 Y90.885 E51.05776
G1 X81.010 Y85.493 E51.52120
G1 X81.017 Y84.803 E51.56979
G1 X84.785 Y90.185 E52.03244
G1 X84.785 Y89.486 E52.08168
G1 X81.023 Y84.113 E52.54354
G1 X81.029 Y83.423 E52.59212
G1 X84.785 Y88.787 E53.05319
G1 X84.785 Y88.088 E53.10243
G1 X81.467 Y83.349 E53.50978
G1 X81.957 Y83.349 E53.54425
G1 X85.112 Y87.855 E53.93159
G1 X85.601 Y87.854 E53.96603
G1 X82.446 Y83.349 E54.35331
G1 X82.936 Y83.349 E54.38778
G1 X86.090 Y87.853 E54.77500
G1 X86.579 Y87.853 E54.80944
G1 X83.425 Y83.349 E55.19660
G1 X83.915 Y83.349 E55.23107
G1 X87.068 Y87.852 E55.61816
G1 X87.557 Y87.851 E55.65260
G1 X84.405 Y83.349 E56.03964
G1 X84.894 Y83.349 E56.07411
G1 X88.046 Y87.851 E56.46108
G1 X88.536 Y87.850 E56.49552
G1 X85.384 Y83.349 E56.88243
G1 X85.873 Y83.349 E56.91690
G1 X89.025 Y87.849 E57.30375
G1 X89.514 Y87.848 E57.33819
G1 X86.363 Y83.349 E57.72498
G1 X86.853 Y83.349 E57.75945
G1 X90.003 Y87.848 E58.14618
G1 X90.492 Y87.847 E58.18062
G1 X87.342 Y83.349 E58.56728
G1 X87.832 Y83.349 E58.60176
G1 X90.981 Y87.847 E58.98839
G1 X91.471 Y87.847 E59.02287
G1 X88.321 Y83.349 E59.40950
G1 X88.811 Y83.349 E59.44398
G1 X91.960 Y87.847 E59.83061
G1 X92.450 Y87.847 E59.86509
G1 X89.301 Y83.349 E60.25172
G1 X89.790 Y83.349 E60.28620
G1 X92.940 Y87.847 E60.67283
G1 X93.429 Y87.847 E60.70730
G1 X90.280 Y83.349 E61.09394
G1 X90.769 Y83.349 E61.12841
G1 X93.919 Y87.847 E61.51505
G1 X94.408 Y87.847 E61.54952
G1 X91.259 Y83.349 E61.93616
G1 X91.749 Y83.349 E61.97063
G1 X94.898 Y87.847 E62.35727
G1 X95.388 Y87.847 E62.39174
G1 X92.238 Y83.349 E62.77838
G1 X92.728 Y83.349 E62.81285
G1 X95.877 Y87.847 E63.19949
G1 X96.367 Y87.847 E63.23396
G1 X93.217 Y83.349 E63.62060
G1 X93.707 Y83.349 E63.65507
G1 X96.856 Y87.847 E64.04171
G1 X97.346 Y87.847 E64.07618
G1 X94.197 Y83.349 E64.46282
G1 X94.686 Y83.349 E64.49729
G1 X97.836 Y87.847 E64.88393
G1 X98.325 Y87.847 E64.91840
G1 X95.176 Y83.349 E65.30504
G1 X95.665 Y83.349 E65.33951
G1 X98.815 Y87.847 E65.72615
G1 X99.304 Y87.847 E65.76062
G1 X96.155 Y83.349 E66.14726
G1 X96.644 Y83.349 E66.18173
G1 X99.794 Y87.847 E66.56837
G1 X100.284 Y87.847 E66.60284
G1 X97.134 Y83.349 E66.98948
G1 X97.624 Y83.349 E67.02395
G1 X100.773 Y87.847 E67.41059
G1 X101.263 Y87.847 E67.44506
G1 X98.113 Y83.349 E67.83169
G1 X98.603 Y83.349 E67.86617
G1 X101.752 Y87.847 E68.25280
G1 X102.242 Y87.847 E68.28728
G1 X99.092 Y83.349 E68.67391
G1 X99.582 Y83.349 E68.70839
G1 X102.732 Y87.847 E69.09502
G1 X103.221 Y87.847 E69.12950
G1 X100.072 Y83.349 E69.51613
G1 X100.561 Y83.349 E69.55061
G1 X103.711 Y87.847 E69.93724
G1 X104.200 Y87.847 E69.97172
G1 X101.051 Y83.349 E70.35835
G1 X101.540 Y83.349 E70.39283
G1 X104.690 Y87.847 E70.77946
G1 X105.180 Y87.847 E70.81394
G1 X102.030 Y83.349 E71.20057
G1 X102.520 Y83.349 E71.23505
G1 X105.669 Y87.847 E71.62168
G1 X106.159 Y87.847 E71.65616
G1 X103.009 Y83.349 E72.04279
G1 X103.499 Y83.349 E72.07726
G1 X106.648 Y87.847 E72.46390
G1 X107.138 Y87.847 E72.49837
G1 X103.988 Y83.349 E72.88501
G1 X104.478 Y83.349 E72.91948
G1 X107.628 Y87.847 E73.30618
G1 X108.118 Y87.848 E73.34069
G1 X104.968 Y83.349 E73.72745
G1 X105.457 Y83.349 E73.76192
G1 X108.608 Y87.849 E74.14874
G1 X109.098 Y87.850 E74.18325
G1 X105.947 Y83.349 E74.57013
G1 X106.436 Y83.349 E74.60460
G1 X109.588 Y87.850 E74.99154
G1 X110.078 Y87.851 E75.02605
G1 X106.926 Y83.349 E75.41305
G1 X107.416 Y83.349 E75.44753
G1 X110.569 Y87.852 E75.83459
G1 X111.059 Y87.852 E75.86910
G1 X107.905 Y83.349 E76.25622
G1 X108.395 Y83.349 E76.29070
G1 X111.549 Y87.853 E76.67789
G1 X112.039 Y87.854 E76.71239
G1 X108.884 Y83.349 E77.09964
G1 X109.374 Y83.349 E77.13412
G1 X112.529 Y87.855 E77.52143
G1 X113.019 Y87.855 E77.55594
G1 X109.864 Y83.349 E77.94331
G1 X110.353 Y83.349 E77.97778
G1 X119.012 Y95.715 E79.04073
G1 X119.012 Y96.414 E79.08996
G1 X113.094 Y87.962 E79.81644
G1 X113.094 Y88.662 E79.86568
G1 X119.012 Y97.113 E80.59216
G1 X119.012 Y97.812 E80.64139
G1 X113.094 Y89.361 E81.36787
G1 X113.094 Y90.060 E81.41710
G1 X119.012 Y98.512 E82.14358
G1 X119.012 Y99.211 E82.19281
G1 X113.094 Y90.759 E82.91929
G1 X113.094 Y91.458 E82.96853
G1 X119.012 Y99.910 E83.69501
G1 X119.012 Y100.609 E83.74424
G1 X113.094 Y92.158 E84.47072
G1 X113.094 Y92.857 E84.51995
G1 X119.012 Y101.308 E85.24643
G1 X119.012 Y102.008 E85.29567
G1 X113.094 Y93.556 E86.02214
G1 X113.094 Y94.255 E86.07138
G1 X119.012 Y102.707 E86.79786
G1 X119.012 Y103.406 E86.84709
G1 X113.094 Y94.954 E87.57357
G1 X113.094 Y95.654 E87.62280
G1 X119.012 Y104.105 E88.34928
G1 X119.012 Y104.804 E88.39852
G1 X113.094 Y96.353 E89.12500
G1 X113.094 Y97.052 E89.17423
G1 X119.012 Y105.504 E89.90071
G1 X119.012 Y106.203 E89.94994
G1 X113.094 Y97.751 E90.67642
G1 X113.094 Y98.450 E90.72565
G1 X119.012 Y106.902 E91.45213
G1 X119.012 Y107.601 E91.50137
G1 X113.094 Y99.150 E92.22785
G1 X113.094 Y99.849 E92.27708
G1 X119.012 Y108.301 E93.00356
G1 X119.012 Y109.000 E93.05279
G1 X113.094 Y100.548 E93.77927
G1 X113.094 Y101.247 E93.82850
G1 X119.012 Y109.699 E94.55498
G1 X119.012 Y110.398 E94.60422
G1 X113.094 Y101.947 E95.33070
G1 X113.094 Y102.646 E95.37993
G1 X119.012 Y111.097 E96.10641
G1 X119.012 Y111.797 E96.15564
G1 X113.094 Y103.345 E96.88212
G1 X113.094 Y104.044 E96.93136
G1 X119.011 Y112.495 E97.65775
G1 X119.004 Y113.184 E97.70631
G1 X113.094 Y104.743 E98.43187
G1 X113.094 Y105.443 E98.48110
G1 X118.998 Y113.874 E99.20583
G1 X118.991 Y114.563 E99.25439
G1 X113.094 Y106.142 E99.97828
G1 X113.094 Y106.841 E100.02752
G1 X118.984 Y115.253 E100.75058
G1 X118.977 Y115.942 E100.79913
G1 X113.094 Y107.540 E101.52136
G1 X113.094 Y108.239 E101.57060
G1 X118.970 Y116.632 E102.29199
G1 X118.494 Y116.651 E102.32554
G1 X113.094 Y108.939 E102.98850
G1 X113.094 Y109.638 E103.03773
G1 X118.005 Y116.651 E103.64058
G1 X117.515 Y116.651 E103.67506
G1 X113.094 Y110.337 E104.21781
G1 X113.094 Y111.036 E104.26704
G1 X117.026 Y116.651 E104.74969
G1 X116.536 Y116.651 E104.78416
G1 X113.094 Y111.736 E105.20671
G1 X112.891 Y112.145 E105.23887
G1 X116.046 Y116.651 E105.62624
G1 X115.557 Y116.651 E105.66072
G1 X112.401 Y112.145 E106.04809
G1 X111.912 Y112.145 E106.08256
G1 X115.067 Y116.651 E106.46993
G1 X114.578 Y116.651 E106.50440
G1 X111.422 Y112.145 E106.89178
G1 X110.933 Y112.145 E106.92625
G1 X114.088 Y116.651 E107.31362
G1 X113.598 Y116.651 E107.34809
G1 X110.443 Y112.145 E107.73546
G1 X109.953 Y112.145 E107.76994
G1 X113.109 Y116.651 E108.15731
G1 X112.619 Y116.651 E108.19178
G1 X109.464 Y112.145 E108.57915
G1 X108.974 Y112.145 E108.61363
G1 X112.130 Y116.651 E109.00100
G1 X111.640 Y116.651 E109.03547
G1 X108.485 Y112.145 E109.42284
G1 X107.995 Y112.145 E109.45731
G1 X111.150 Y116.651 E109.84468
G1 X110.661 Y116.651 E109.87916
G1 X107.505 Y112.145 E110.26653
G1 X107.016 Y112.145 E110.30100
G1 X110.171 Y116.651 E110.68837
G1 X109.682 Y116.651 E110.72285
G1 X106.526 Y112.145 E111.11022
G1 X106.037 Y112.145 E111.14469
G1 X109.192 Y116.651 E111.53206
G1 X108.703 Y116.651 E111.56653
G1 X105.547 Y112.145 E111.95390
G1 X105.057 Y112.145 E111.98838
G1 X108.213 Y116.651 E112.37575
G1 X107.723 Y116.651 E112.41022
G1 X104.568 Y112.145 E112.79759
G1 X104.078 Y112.145 E112.83207
G1 X107.234 Y116.651 E113.21944
G1 X106.744 Y116.651 E113.25391
G1 X103.589 Y112.145 E113.64128
G1 X103.099 Y112.145 E113.67576
G1 X106.255 Y116.651 E114.06313
G1 X105.765 Y116.651 E114.09760
G1 X102.609 Y112.145 E114.48497
G1 X102.120 Y112.145 E114.51944
G1 X105.275 Y116.651 E114.90681
G1 X104.786 Y116.651 E114.94129
G1 X101.630 Y112.145 E115.32866
G1 X101.141 Y112.145 E115.36313
G1 X104.296 Y116.651 E115.75050
G1 X103.807 Y116.651 E115.78498
G1 X100.651 Y112.145 E116.17235
G1 X100.161 Y112.145 E116.20682
G1 X103.317 Y116.651 E116.59419
G1 X102.827 Y116.651 E116.62866
G1 X99.672 Y112.145 E117.01603
G1 X99.182 Y112.145 E117.05051
G1 X102.338 Y116.651 E117.43788
G1 X101.848 Y116.651 E117.47235
G1 X98.693 Y112.145 E117.85972
G1 X98.203 Y112.145 E117.89420
G1 X101.359 Y116.651 E118.28157
G1 X100.869 Y116.651 E118.31604
G1 X97.713 Y112.145 E118.70341
G1 X97.224 Y112.145 E118.73788
G1 X100.379 Y116.651 E119.12526
G1 X99.890 Y116.651 E119.15973
G1 X96.734 Y112.145 E119.54710
G1 X96.245 Y112.145 E119.58157
G1 X99.400 Y116.651 E119.96894
G1 X98.911 Y116.651 E120.00342
G1 X95.755 Y112.145 E120.39079
G1 X95.266 Y112.145 E120.42526
G1 X98.421 Y116.651 E120.81263
G1 X97.931 Y116.651 E120.84711
G1 X94.776 Y112.145 E121.23448
G1 X94.286 Y112.145 E121.26895
G1 X97.442 Y116.651 E121.65632
G1 X96.952 Y116.651 E121.69079
G1 X93.797 Y112.145 E122.07816
G1 X93.307 Y112.145 E122.11264
G1 X96.463 Y116.651 E122.50001
G1 X95.973 Y116.651 E122.53448
G1 X92.818 Y112.145 E122.92185
G1 X92.328 Y112.145 E122.95633
G1 X95.483 Y116.651 E123.34370
G1 X94.994 Y116.651 E123.37817
G1 X91.838 Y112.145 E123.76554
G1 X91.349 Y112.145 E123.80001
G1 X94.504 Y116.651 E124.18739
G1 X94.015 Y116.651 E124.22186
G1 X90.859 Y112.145 E124.60923
G1 X90.370 Y112.145 E124.64370
G1 X93.525 Y116.651 E125.03107
G1 X93.035 Y116.651 E125.06555
G1 X89.880 Y112.145 E125.45292
G1 X89.390 Y112.145 E125.48739
G1 X92.546 Y116.651 E125.87476
G1 X92.056 Y116.651 E125.90924
G1 X88.901 Y112.145 E126.29661
G1 X88.411 Y112.145 E126.33108
G1 X91.567 Y116.651 E126.71845
G1 X91.077 Y116.651 E126.75292
G1 X87.922 Y112.145 E127.14029
G1 X87.432 Y112.145 E127.17477
G1 X90.588 Y116.651 E127.56214
G1 X90.098 Y116.651 E127.59661
G1 X86.942 Y112.145 E127.98398
G1 X86.453 Y112.145 E128.01846
G1 X89.608 Y116.651 E128.40583
G1 X89.119 Y116.651 E128.44030
G1 X85.963 Y112.145 E128.82767
G1 X85.474 Y112.145 E128.86214
G1 X88.629 Y116.651 E129.24952
G1 X84.984 Y112.145 F6600.000
G1 X88.140 Y116.651 F810.000 E129.63689
G1 X87.650 Y116.651 E129.67136
G1 X80.993 Y107.145 E130.48853
G1 X80.993 Y107.844 E130.53776
G1 X87.160 Y116.651 E131.29483
G1 X86.671 Y116.651 E131.32931
G1 X80.993 Y108.543 E132.02627
G1 X80.993 Y109.242 E132.07551
G1 X86.181 Y116.651 E132.71237
G1 X85.692 Y116.651 E132.74684
G1 X80.993 Y109.941 E133.32360
G1 X80.993 Y110.641 E133.37284
G1 X85.202 Y116.651 E133.88949
G1 X84.712 Y116.651 E133.92397
G1 X80.993 Y111.340 E134.38052
G1 X80.993 Y112.039 E134.42975
G1 X84.223 Y116.651 E134.82621
G1 X83.733 Y116.651 E134.86068
G1 X80.994 Y112.739 E135.19699
G1 X81.000 Y113.447 E135.24689
G1 X83.244 Y116.651 E135.52229
G1 X82.754 Y116.651 E135.55676
G1 X81.007 Y114.156 E135.77124
G1 X81.013 Y114.865 E135.82114
G1 X82.264 Y116.651 E135.97470
G1 X81.775 Y116.651 E136.00918
G1 X81.020 Y115.573 E136.10183
G1 X81.027 Y116.282 E136.15173
G1 X81.285 Y116.651 E136.18346
G1 F2700.000 E135.33346
G92 E0
G1 X119.012 Y95.015 F6600.000
G1 F2700.000 E0.85000
G1 X110.843 Y83.349 F810.000 E1.85285
G1 X111.332 Y83.349 E1.88732
G1 X119.012 Y94.316 E2.83006
G1 X119.012 Y93.617 E2.87930
G1 X111.822 Y83.349 E3.76194
G1 X112.312 Y83.349 E3.79641
G1 X119.012 Y92.918 E4.61895
G1 X119.012 Y92.219 E4.66818
G1 X112.801 Y83.349 E5.43062
G1 X113.291 Y83.349 E5.46509
G1 X119.012 Y91.519 E6.16742
G1 X119.012 Y90.820 E6.21666
G1 X113.780 Y83.349 E6.85889
G1 X114.270 Y83.349 E6.89336
G1 X119.012 Y90.121 E7.47549
G1 X119.012 Y89.422 E7.52472
G1 X114.759 Y83.349 E8.04675
G1 X115.249 Y83.349 E8.08122
G1 X119.012 Y88.723 E8.54314
G1 X119.012 Y88.023 E8.59237
G1 X115.739 Y83.349 E8.99419
G1 X116.228 Y83.349 E9.02867
G1 X119.009 Y87.321 E9.37008
G1 X119.002 Y86.611 E9.42002
