; generated by Slic3r 0.9.10b on 2013-06-28 at 17:03:55

; layer_height = 0.2
; perimeters = 2
; top_solid_layers = 3
; bottom_solid_layers = 3
; fill_density = 0.1
; perimeter_speed = 70
; infill_speed = 100
; travel_speed = 110
; nozzle_diameter = 0.4
; filament_diameter = 2.95
; extrusion_multiplier = 1.0
; perimeters extrusion width = 0.67mm
; infill extrusion width = 0.67mm
; solid infill extrusion width = 0.67mm
; top infill extrusion width = 0.67mm
; first layer extrusion width = 0.44mm

G21 ; set units to millimeters
M107
M104 S200 ; set temperature
G28 ; home all axes
G1 Z5 F5000 ; lift nozzle
M109 S200 ; wait for temperature to be reached
G90 ; use absolute coordinates
G92 E0
M82 ; use absolute distances for extrusion
G1 F2700.000 E-0.85000
G92 E0
G1 Z0.220 F6600.000
G1 X88.696 Y88.798
G1 F2700.000 E0.85000
G1 X89.766 Y87.868 F1800.000 E0.86969
G1 X90.446 Y87.368 E0.88141
G1 X91.186 Y86.948 E0.89322
G1 X92.266 Y86.438 E0.90981
G1 X93.006 Y86.148 E0.92084
G1 X93.766 Y85.948 E0.93176
G1 X97.106 Y85.288 E0.97903
G1 X97.886 Y85.188 E0.98995
G1 X99.336 Y85.088 E1.01014
G1 X100.346 Y85.108 E1.02416
G1 X102.316 Y85.318 E1.05168
G1 X104.006 Y85.578 E1.07542
G1 X105.066 Y85.798 E1.09045
G1 X105.926 Y86.018 E1.10278
G1 X106.706 Y86.278 E1.11420
G1 X107.366 Y86.558 E1.12415
G1 X108.016 Y86.868 E1.13415
G1 X108.636 Y87.208 E1.14397
G1 X109.306 Y87.658 E1.15518
G1 X110.036 Y88.278 E1.16848
G1 X110.666 Y88.928 E1.18105
G1 X112.106 Y90.638 E1.21209
G1 X112.816 Y91.658 E1.22935
G1 X113.716 Y93.388 E1.25643
G1 X114.076 Y94.198 E1.26874
G1 X114.276 Y94.758 E1.27699
G1 X114.466 Y95.408 E1.28640
G1 X114.596 Y96.088 E1.29601
G1 X114.656 Y96.548 E1.30245
G1 X114.706 Y97.228 E1.31192
G1 X114.726 Y98.358 E1.32762
G1 X114.696 Y100.028 E1.35081
G1 X114.646 Y100.708 E1.36028
G1 X114.506 Y101.708 E1.37430
G1 X114.416 Y102.138 E1.38040
G1 X114.146 Y103.208 E1.39572
G1 X113.846 Y104.238 E1.41062
G1 X113.616 Y104.888 E1.42020
G1 X113.256 Y105.748 E1.43314
G1 X112.826 Y106.598 E1.44637
G1 X112.486 Y107.158 E1.45547
G1 X111.886 Y108.078 E1.47072
G1 X111.556 Y108.538 E1.47858
G1 X111.186 Y108.968 E1.48646
G1 X110.716 Y109.468 E1.49599
G1 X109.926 Y110.178 E1.51074
G1 X109.046 Y110.748 E1.52530
G1 X106.166 Y112.278 E1.57058
G1 X105.406 Y112.618 E1.58214
G1 X104.616 Y112.858 E1.59361
G1 X101.346 Y113.628 E1.64026
G1 X100.786 Y113.738 E1.64818
G1 X100.216 Y113.788 E1.65613
G1 X98.686 Y113.868 E1.67740
G1 X97.486 Y113.818 E1.69408
G1 X96.316 Y113.548 E1.71076
G1 X92.896 Y112.408 E1.76082
G1 X92.196 Y112.128 E1.77128
G1 X91.236 Y111.678 E1.78601
G1 X90.206 Y111.068 E1.80263
G1 X89.296 Y110.278 E1.81936
G1 X88.576 Y109.518 E1.83390
G1 X88.026 Y108.858 E1.84583
G1 X87.666 Y108.358 E1.85439
G1 X87.286 Y107.768 E1.86413
G1 X86.856 Y107.008 E1.87626
G1 X86.436 Y106.118 E1.88992
G1 X86.156 Y105.378 E1.90091
G1 X85.996 Y104.888 E1.90807
G1 X85.476 Y103.018 E1.93502
G1 X85.326 Y102.228 E1.94619
G1 X85.266 Y101.778 E1.95249
G1 X85.196 Y100.848 E1.96544
G1 X85.206 Y99.988 E1.97738
G1 X85.296 Y99.348 E1.98636
G1 X86.326 Y93.338 E2.07103
G1 X86.506 Y92.588 E2.08174
G1 X86.676 Y92.018 E2.09000
G1 X86.966 Y91.218 E2.10182
G1 X87.376 Y90.468 E2.11369
G1 X87.556 Y90.178 E2.11843
G1 X88.076 Y89.448 E2.13087
G1 X88.652 Y88.844 E2.14245
G1 F2700.000 E1.29245
G92 E0
G1 X99.458 Y99.015 F6600.000
G1 F2700.000 E0.85000
G1 X100.367 Y98.250 F1800.000 E0.86650
G1 X100.536 Y98.066 E0.86997
G1 X100.764 Y97.880 E0.87405
G1 X101.123 Y97.832 E0.87909
G1 X101.283 Y97.786 E0.88140
G1 X101.469 Y97.491 E0.88624
G1 X101.637 Y97.402 E0.88888
G1 X101.904 Y97.163 E0.89386
G1 X102.061 Y97.064 E0.89644
G1 X102.126 Y96.976 E0.89796
G1 X102.526 Y96.794 E0.90406
G1 X102.521 Y96.715 E0.90516
G1 X102.779 Y96.551 E0.90939
G1 X102.993 Y96.338 E0.91359
G1 X103.074 Y96.364 E0.91477
G1 X103.456 Y96.095 E0.92124
G1 X103.831 Y96.003 E0.92661
G1 X104.075 Y95.515 E0.93419
G1 X104.832 Y95.204 E0.94555
G1 X105.271 Y95.664 E0.95437
G1 X106.143 Y96.702 E0.97320
G1 X106.190 Y96.698 E0.97386
G1 X106.151 Y98.192 E0.99462
G1 X105.862 Y98.374 E0.99935
G1 X105.719 Y98.552 E1.00252
G1 X104.952 Y99.089 E1.01553
G1 X104.674 Y99.127 E1.01942
G1 X104.276 Y99.116 E1.02495
G1 X104.192 Y99.156 E1.02624
G1 X103.814 Y99.077 E1.03160
G1 X103.748 Y99.029 E1.03274
G1 X103.424 Y99.134 E1.03746
G1 X103.307 Y99.332 E1.04066
G1 X103.034 Y99.582 E1.04580
G1 X102.978 Y99.754 E1.04831
G1 X102.869 Y99.829 E1.05014
G1 X102.562 Y100.463 E1.05994
G1 X102.668 Y100.521 E1.06162
G1 X102.394 Y101.544 E1.07631
G1 X102.036 Y101.536 E1.08130
G1 X101.996 Y101.846 E1.08565
G1 X101.277 Y102.325 E1.09764
G1 X101.066 Y102.156 E1.10140
G1 X100.833 Y102.200 E1.10469
G1 X99.945 Y102.167 E1.11704
G1 X99.876 Y101.228 E1.13010
G1 X99.887 Y101.177 E1.13083
G1 X99.693 Y99.915 E1.14856
G1 X100.012 Y100.012 E1.15318
G1 X100.051 Y99.498 E1.16034
G1 X99.508 Y99.055 E1.17007
G1 X100.134 Y99.009 F6600.000
G1 X100.666 Y98.562 F1800.000 E1.17972
G1 X100.833 Y98.380 E1.18315
G1 X100.942 Y98.291 E1.18510
G1 X101.175 Y98.260 E1.18837
G1 X101.331 Y98.297 E1.19059
G1 X101.372 Y98.209 E1.19193
G1 X101.511 Y98.169 E1.19394
G1 X101.622 Y98.057 E1.19613
G1 X101.772 Y97.818 E1.20005
G1 X101.885 Y97.759 E1.20182
G1 X102.138 Y97.533 E1.20652
G1 X102.363 Y97.382 E1.21029
G1 X102.398 Y97.334 E1.21112
G1 X102.800 Y97.138 E1.21732
G1 X102.968 Y96.972 E1.22061
G1 X102.966 Y96.943 E1.22100
G1 X103.112 Y96.828 E1.22359
G1 X103.136 Y96.835 E1.22393
G1 X103.643 Y96.494 E1.23242
G1 X103.896 Y96.441 E1.23601
G1 X104.100 Y96.344 E1.23914
G1 X104.349 Y96.257 E1.24280
G1 X104.258 Y96.114 E1.24516
G1 X104.389 Y95.853 E1.24921
G1 X104.724 Y95.715 E1.25424
G1 X104.949 Y95.952 E1.25878
G1 X105.327 Y96.402 E1.26694
G1 X105.102 Y96.588 E1.27100
G1 X105.200 Y96.834 E1.27468
G1 X105.125 Y96.965 E1.27678
G1 X105.074 Y97.217 E1.28035
G1 X105.746 Y97.165 E1.28971
G1 X105.726 Y97.950 E1.30061
G1 X105.571 Y98.047 E1.30315
G1 X105.421 Y98.234 E1.30647
G1 X104.790 Y98.675 E1.31717
G1 X104.650 Y98.694 E1.31913
G1 X104.213 Y98.683 E1.32521
G1 X104.139 Y98.704 E1.32628
G1 X103.992 Y98.674 E1.32836
G1 X103.816 Y98.547 E1.33137
G1 X103.287 Y98.725 E1.33912
G1 X103.099 Y98.837 E1.34216
G1 X102.968 Y99.057 E1.34572
G1 X102.738 Y99.268 E1.35005
G1 X102.669 Y99.307 E1.35115
G1 X102.613 Y99.482 E1.35370
G1 X102.531 Y99.538 E1.35508
G1 X102.292 Y100.032 E1.36270
G1 X102.106 Y100.140 E1.36568
G1 X102.056 Y100.216 E1.36694
G1 X102.096 Y100.358 E1.36900
G1 X101.897 Y100.592 E1.37326
G1 X102.164 Y100.737 E1.37748
G1 X102.065 Y101.105 E1.38276
G1 X101.856 Y101.100 E1.38567
G1 X101.691 Y101.233 E1.38861
G1 X101.611 Y101.451 E1.39183
G1 X101.593 Y101.596 E1.39387
G1 X101.301 Y101.791 E1.39874
G1 X101.181 Y101.694 E1.40088
G1 X100.804 Y101.766 E1.40622
G1 X100.347 Y101.749 E1.41257
G1 X100.311 Y101.261 E1.41937
G1 X100.326 Y101.192 E1.42034
G1 X100.224 Y100.527 E1.42968
G1 X100.400 Y100.580 E1.43224
G1 X100.436 Y100.113 E1.43876
G1 X100.482 Y100.105 E1.43939
G1 X100.578 Y99.886 E1.44272
G1 X100.605 Y99.680 E1.44561
G1 X100.751 Y99.512 E1.44870
G1 X100.184 Y99.050 E1.45886
G1 X100.553 Y98.907 F6600.000
G1 X98.744 Y95.911
G1 X99.028 Y95.468 F1800.000 E1.46615
G1 X99.179 Y95.349 E1.46882
G1 X99.225 Y94.948 E1.47443
G1 X99.361 Y94.675 E1.47867
G1 X99.252 Y94.500 E1.48153
G1 X99.265 Y94.224 E1.48537
G1 X98.826 Y93.965 E1.49245
G1 X98.628 Y93.899 E1.49535
G1 X98.702 Y93.665 E1.49876
G1 X98.520 Y93.405 E1.50317
G1 X98.547 Y93.253 E1.50532
G1 X98.876 Y92.541 E1.51621
G1 X98.904 Y92.209 E1.52084
G1 X99.757 Y92.164 E1.53270
G1 X101.249 Y92.326 E1.55354
G1 X102.916 Y92.582 E1.57695
G1 X103.584 Y92.721 E1.58643
G1 X103.785 Y92.795 E1.58940
G1 X104.057 Y92.853 E1.59327
G1 X104.577 Y93.067 E1.60107
G1 X105.110 Y93.352 E1.60947
G1 X105.119 Y93.748 E1.61498
G1 X104.897 Y94.244 E1.62252
G1 X105.364 Y94.312 E1.62907
G1 X105.220 Y94.512 E1.63250
G1 X105.811 Y95.040 E1.64351
G1 X106.261 Y95.971 E1.65787
G1 X106.397 Y95.797 E1.66093
G1 X106.653 Y96.259 E1.66826
G1 X106.740 Y96.806 E1.67596
G1 X107.087 Y96.903 E1.68096
G1 X107.162 Y97.292 E1.68646
G1 X107.364 Y97.222 E1.68942
G1 X107.549 Y98.058 E1.70131
G1 X107.077 Y98.358 E1.70907
G1 X107.391 Y99.033 E1.71941
G1 X107.411 Y99.294 E1.72304
G1 X107.608 Y99.979 E1.73293
G1 X107.557 Y100.228 E1.73647
G1 X107.563 Y100.340 E1.73803
G1 X107.488 Y100.668 E1.74269
G1 X107.302 Y101.289 E1.75170
G1 X107.285 Y101.522 E1.75494
G1 X107.076 Y102.205 E1.76486
G1 X106.760 Y102.970 E1.77636
G1 X106.190 Y103.354 E1.78590
G1 X106.094 Y103.949 E1.79428
G1 X105.977 Y104.181 E1.79788
G1 X105.646 Y104.534 E1.80460
G1 X104.892 Y104.787 E1.81564
G1 X104.636 Y104.986 E1.82014
G1 X104.294 Y104.643 E1.82687
G1 X103.630 Y104.988 E1.83727
G1 X103.337 Y105.583 E1.84647
G1 X103.213 Y105.622 E1.84829
G1 X102.927 Y105.931 E1.85412
G1 X102.237 Y105.820 E1.86383
G1 X102.064 Y105.808 E1.86623
G1 X100.731 Y106.067 E1.88509
G1 X100.073 Y105.755 E1.89520
G1 X99.744 Y106.428 E1.90561
G1 X99.167 Y106.587 E1.91393
G1 X98.675 Y106.289 E1.92191
G1 X98.493 Y106.269 E1.92446
G1 X98.354 Y105.866 E1.93038
G1 X97.671 Y105.525 E1.94098
G1 X96.744 Y106.019 E1.95556
G1 X95.853 Y105.811 E1.96827
G1 X95.515 Y105.793 E1.97297
G1 X95.332 Y105.705 E1.97579
G1 X95.038 Y105.647 E1.97995
G1 X94.335 Y105.317 E1.99073
G1 X93.748 Y104.691 E2.00266
G1 X93.432 Y104.253 E2.01015
G1 X93.180 Y103.831 E2.01698
G1 X93.044 Y103.569 E2.02107
G1 X92.960 Y103.364 E2.02416
G1 X92.935 Y103.248 E2.02580
G1 X92.875 Y103.141 E2.02750
G1 X92.654 Y102.306 E2.03950
G1 X92.527 Y101.960 E2.04461
G1 X92.521 Y101.860 E2.04601
G1 X92.332 Y101.215 E2.05534
G1 X92.282 Y100.877 E2.06009
G1 X92.276 Y100.682 E2.06279
G1 X92.440 Y100.476 E2.06645
G1 X92.816 Y99.866 E2.07640
G1 X93.110 Y99.856 E2.08049
G1 X93.155 Y99.637 E2.08360
G1 X93.330 Y99.565 E2.08622
G1 X93.984 Y99.453 E2.09543
G1 X94.183 Y100.137 E2.10533
G1 X94.826 Y98.639 E2.12797
G1 X94.923 Y98.621 E2.12933
G1 X95.405 Y98.068 E2.13952
G1 X95.079 Y96.627 E2.16004
G1 X94.565 Y96.914 E2.16823
G1 X94.401 Y96.697 E2.17200
G1 X94.788 Y96.309 E2.17961
G1 X94.472 Y95.986 E2.18589
G1 X94.342 Y95.481 E2.19313
G1 X94.065 Y95.571 E2.19718
G1 X93.819 Y95.320 E2.20207
G1 X93.784 Y95.221 E2.20352
G1 X93.473 Y94.793 E2.21087
G1 X93.349 Y94.423 E2.21629
G1 X93.422 Y94.176 E2.21988
G1 X93.720 Y93.976 E2.22485
G1 X93.756 Y93.909 E2.22591
G1 X93.907 Y93.774 E2.22873
G1 X93.968 Y93.609 E2.23117
G1 X94.184 Y93.441 E2.23497
G1 X94.331 Y93.450 E2.23702
G1 X94.406 Y93.428 E2.23810
G1 X94.685 Y93.474 E2.24203
G1 X94.793 Y93.737 E2.24598
G1 X94.846 Y93.803 E2.24715
G1 X94.897 Y93.952 E2.24934
G1 X95.264 Y94.361 E2.25698
G1 X95.111 Y95.091 E2.26734
G1 X96.093 Y95.128 E2.28098
G1 X96.423 Y95.426 E2.28716
G1 X96.298 Y96.584 E2.30333
G1 X97.457 Y96.332 E2.31979
G1 X97.602 Y96.455 E2.32243
G1 X97.830 Y96.094 E2.32836
G1 X98.352 Y95.934 E2.33595
G1 X98.438 Y95.845 E2.33766
G1 X98.681 Y95.897 E2.34112
G1 X98.542 Y95.426 F6600.000
G1 X98.704 Y95.174 F1800.000 E2.34528
G1 X98.771 Y95.121 E2.34647
G1 X98.805 Y94.823 E2.35063
G1 X98.868 Y94.698 E2.35257
G1 X98.815 Y94.614 E2.35395
G1 X98.822 Y94.463 E2.35605
G1 X98.647 Y94.360 E2.35887
G1 X98.484 Y94.306 E2.36125
G1 X98.374 Y94.173 E2.36365
G1 X98.150 Y93.978 E2.36777
G1 X98.226 Y93.738 E2.37127
G1 X98.077 Y93.526 E2.37487
G1 X98.071 Y93.466 E2.37571
G1 X98.132 Y93.120 E2.38058
G1 X98.429 Y92.494 E2.39021
G1 X98.455 Y92.392 E2.39166
G1 X98.484 Y92.196 E2.39442
G1 X98.384 Y91.822 E2.39979
G1 X99.336 Y91.745 E2.41306
G1 X99.789 Y91.734 E2.41935
G1 X100.935 Y91.853 E2.43535
G1 X102.806 Y92.127 E2.46162
G1 X103.698 Y92.303 E2.47423
G1 X103.902 Y92.379 E2.47725
G1 X104.191 Y92.443 E2.48137
G1 X104.521 Y92.567 E2.48626
G1 X105.234 Y92.926 E2.49734
G1 X105.538 Y93.158 E2.50265
G1 X105.547 Y93.584 E2.50857
G1 X105.657 Y93.602 E2.51012
G1 X105.524 Y93.899 E2.51463
G1 X105.706 Y93.925 E2.51717
G1 X105.714 Y94.149 E2.52029
G1 X105.901 Y94.303 E2.52365
G1 X105.796 Y94.449 E2.52614
G1 X106.162 Y94.775 E2.53295
G1 X106.347 Y95.159 E2.53886
G1 X106.517 Y94.940 E2.54270
G1 X106.714 Y94.984 E2.54551
G1 X107.056 Y95.005 E2.55026
G1 X107.068 Y95.280 E2.55408
G1 X106.964 Y95.354 E2.55586
G1 X106.802 Y95.639 E2.56041
G1 X106.950 Y95.905 E2.56463
G1 X107.049 Y95.939 E2.56609
G1 X107.123 Y96.465 E2.57347
G1 X107.460 Y96.560 E2.57833
G1 X107.491 Y96.722 E2.58062
G1 X107.881 Y96.603 E2.58628
G1 X108.007 Y96.961 E2.59154
G1 X108.051 Y97.335 E2.59677
G1 X107.882 Y97.567 E2.60076
G1 X107.931 Y97.789 E2.60392
G1 X108.075 Y98.234 E2.61042
G1 X107.628 Y98.519 E2.61778
G1 X107.815 Y98.922 E2.62395
G1 X107.838 Y99.217 E2.62805
G1 X107.979 Y99.708 E2.63516
G1 X108.054 Y99.817 E2.63699
G1 X108.048 Y99.979 E2.63925
G1 X107.991 Y100.261 E2.64324
G1 X107.996 Y100.378 E2.64486
G1 X107.907 Y100.772 E2.65047
G1 X107.728 Y101.372 E2.65917
G1 X107.704 Y101.628 E2.66273
G1 X107.484 Y102.345 E2.67316
G1 X107.237 Y102.961 E2.68236
G1 X107.143 Y103.170 E2.68554
G1 X106.969 Y103.467 E2.69033
G1 X106.833 Y103.441 E2.69225
G1 X106.586 Y103.607 E2.69639
G1 X106.511 Y104.077 E2.70300
G1 X106.340 Y104.421 E2.70833
G1 X105.907 Y104.887 E2.71717
G1 X105.754 Y104.960 E2.71952
G1 X105.097 Y105.174 E2.72911
G1 X104.982 Y105.263 E2.73114
G1 X104.962 Y105.299 E2.73170
G1 X104.735 Y105.380 E2.73505
G1 X104.536 Y105.497 E2.73825
G1 X104.212 Y105.172 E2.74462
G1 X103.955 Y105.306 E2.74865
G1 X103.643 Y105.938 E2.75845
G1 X103.452 Y105.999 E2.76124
G1 X103.099 Y106.381 E2.76846
G1 X102.696 Y106.341 E2.77408
G1 X102.110 Y106.244 E2.78233
G1 X100.693 Y106.527 E2.80239
G1 X100.274 Y106.328 E2.80884
G1 X99.886 Y107.127 E2.82118
G1 X99.549 Y106.930 E2.82660
G1 X99.102 Y107.053 E2.83304
G1 X98.533 Y106.707 E2.84228
G1 X98.288 Y106.681 E2.84570
G1 X98.223 Y106.716 E2.84673
G1 X98.127 Y106.665 E2.84825
G1 X98.067 Y106.544 E2.85012
G1 X98.085 Y106.411 E2.85198
G1 X98.004 Y106.174 E2.85547
G1 X97.676 Y106.010 E2.86055
G1 X96.853 Y106.456 E2.87354
G1 X96.759 Y106.468 E2.87486
G1 X95.797 Y106.240 E2.88858
G1 X95.406 Y106.219 E2.89403
G1 X95.195 Y106.118 E2.89728
G1 X94.938 Y106.077 E2.90089
G1 X94.092 Y105.679 E2.91387
G1 X93.416 Y104.968 E2.92749
G1 X93.071 Y104.489 E2.93570
G1 X92.801 Y104.038 E2.94300
G1 X92.653 Y103.752 E2.94746
G1 X92.526 Y103.402 E2.95264
G1 X92.478 Y103.316 E2.95401
G1 X92.393 Y103.056 E2.95781
G1 X92.383 Y102.938 E2.95944
G1 X92.235 Y102.413 E2.96703
G1 X92.101 Y102.054 E2.97234
G1 X92.093 Y101.932 E2.97404
G1 X91.914 Y101.326 E2.98281
G1 X91.852 Y100.913 E2.98862
G1 X91.840 Y100.537 E2.99384
G1 X92.082 Y100.233 E2.99924
G1 X92.531 Y99.502 E3.01115
G1 X92.612 Y99.441 E3.01256
G1 X92.757 Y99.436 E3.01457
G1 X92.783 Y99.310 E3.01636
G1 X93.294 Y99.114 E3.02396
G1 X93.306 Y99.132 E3.02426
G1 X93.808 Y99.045 E3.03133
G1 X94.203 Y98.663 E3.03896
G1 X94.261 Y98.862 E3.04183
G1 X94.447 Y98.427 E3.04839
G1 X94.647 Y98.234 E3.05226
G1 X94.696 Y98.225 E3.05294
G1 X94.936 Y97.950 E3.05801
G1 X94.786 Y97.285 E3.06748
G1 X94.509 Y97.439 E3.07188
G1 X94.308 Y97.086 E3.07753
G1 X94.123 Y96.364 E3.08787
G1 X94.181 Y96.306 E3.08900
G1 X94.082 Y96.206 E3.09096
G1 X94.038 Y96.034 E3.09342
G1 X93.944 Y96.065 E3.09479
G1 X93.444 Y95.554 E3.10472
G1 X93.398 Y95.425 E3.10663
G1 X93.088 Y94.998 E3.11395
G1 X93.010 Y94.853 E3.11623
G1 X93.029 Y94.826 E3.11669
G1 X92.896 Y94.431 E3.12247
G1 X93.037 Y93.954 E3.12938
G1 X93.077 Y93.887 E3.13046
G1 X93.390 Y93.678 E3.13568
G1 X93.540 Y93.523 E3.13868
G1 X93.607 Y93.343 E3.14134
G1 X93.842 Y93.161 E3.14547
G1 X94.014 Y92.998 E3.14877
G1 X94.281 Y93.015 E3.15248
G1 X94.377 Y92.986 E3.15387
G1 X94.522 Y93.010 E3.15592
G1 X94.637 Y92.913 E3.15801
G1 X94.910 Y92.829 E3.16196
G1 X94.940 Y92.994 E3.16430
G1 X95.045 Y93.110 E3.16647
G1 X95.136 Y93.435 E3.17116
G1 X95.169 Y93.516 E3.17238
G1 X95.230 Y93.592 E3.17373
G1 X95.274 Y93.720 E3.17561
G1 X95.455 Y93.912 E3.17927
G1 X95.766 Y94.073 E3.18413
G1 X95.638 Y94.679 E3.19274
G1 X96.265 Y94.703 E3.20145
G1 X96.680 Y95.078 E3.20922
G1 X96.721 Y95.036 E3.21002
G1 X96.873 Y95.276 E3.21398
G1 X96.791 Y96.035 E3.22458
G1 X97.394 Y95.904 E3.23314
G1 X97.490 Y95.796 E3.23516
G1 X97.502 Y95.805 E3.23536
G1 X97.560 Y95.713 E3.23689
G1 X97.869 Y95.643 E3.24129
