;Generated with Cura_SteamEngine 1.0
M109 T0 S220.000000
T0
;Sliced at: Fri 05 Jul 2013 15:26:48
;Basic settings: Layer height: 0.1 Walls: 0.8 Fill: 20
;Print time: #P_TIME#
;Filament used: #F_AMNT#m #F_WGHT#g
;Filament cost: #F_COST#
G21        ;metric values
G90        ;absolute positioning
M107       ;start with the fan off
G28 X0 Y0  ;move X/Y to min endstops
G28 Z0     ;move Z to min endstops
G1 Z15.0 F9000 ;move the platform down 15mm
G92 E0                  ;zero the extruded length
G1 F200 E3              ;extrude 3mm of feed stock
G92 E0                  ;zero the extruded length again
G1 F9000
M117 Printing...

;total_layers=149
;LAYER:0
M107
G0 F4500 X73.14 Y74.51 Z0.30
;TYPE:SKIRT
G1 F1500 X75.10 Y72.88 E0.04795
G1 X76.08 Y71.73 E0.07627
G1 X76.43 Y71.78 E0.08285
G1 X77.36 Y71.01 E0.10562
G1 X77.91 Y70.64 E0.11813
G1 X80.19 Y69.46 E0.16640
G1 X80.91 Y69.22 E0.18070
G1 X82.71 Y67.68 E0.22518
G1 X83.10 Y67.39 E0.23434
G1 X83.20 Y67.34 E0.23645
G1 X83.69 Y66.93 E0.24837
G1 X83.79 Y66.97 E0.25050
G1 X85.40 Y65.99 E0.28599
G1 X85.88 Y65.75 E0.29597
G1 X88.32 Y64.78 E0.34544
G1 X88.96 Y64.60 E0.35790
G1 X92.75 Y63.97 E0.43024
G1 X94.43 Y63.27 E0.46445
G1 X94.90 Y63.12 E0.47369
G1 X97.52 Y62.49 E0.52446
G1 X98.04 Y62.41 E0.53431
G1 X98.29 Y62.39 E0.53906
G1 X98.71 Y61.87 E0.55158
G1 X100.99 Y62.22 E0.59487
G1 X102.53 Y62.11 E0.62400
G1 X102.85 Y62.49 E0.63331
G1 X103.87 Y62.65 E0.65283
G1 X104.60 Y62.88 E0.66722
G1 X106.59 Y62.72 E0.70470
G1 X106.64 Y62.67 E0.70608
G1 X107.02 Y62.69 E0.71336
G1 X107.42 Y62.69 E0.72077
G1 X111.42 Y62.99 E0.79630
G1 X111.55 Y63.22 E0.80125
G1 X113.20 Y63.64 E0.83340
G1 X113.83 Y63.88 E0.84589
G1 X116.12 Y65.02 E0.89413
G1 X116.58 Y65.35 E0.90466
G1 X119.07 Y65.50 E0.95175
G1 X119.32 Y66.11 E0.96405
G1 X119.50 Y66.16 E0.96741
G1 X121.99 Y67.20 E1.01831
G1 X122.46 Y67.44 E1.02821
G1 X124.68 Y68.85 E1.07769
G1 X125.21 Y69.26 E1.09025
G1 X127.94 Y71.95 E1.16230
G1 X129.50 Y72.91 E1.19677
G1 X129.90 Y73.20 E1.20600
G1 X131.95 Y74.95 E1.25679
G1 X132.09 Y75.10 E1.26060
G1 X132.92 Y75.12 E1.27626
G1 X134.21 Y77.61 E1.32888
G1 X134.93 Y78.47 E1.34991
G1 X134.84 Y78.81 E1.35662
G1 X135.55 Y80.18 E1.38561
G1 X135.79 Y80.91 E1.40003
G1 X136.79 Y82.08 E1.42909
G1 X136.96 Y82.10 E1.43227
G1 X137.38 Y82.76 E1.44689
G1 X139.54 Y85.30 E1.50963
G1 X139.29 Y85.96 E1.52295
G1 X140.23 Y88.32 E1.57059
G1 X140.41 Y88.95 E1.58305
G1 X140.83 Y91.49 E1.63135
G1 X140.83 Y92.05 E1.64201
G1 X141.91 Y93.76 E1.68002
G1 X141.65 Y94.20 E1.68970
G1 X141.73 Y94.41 E1.69403
G1 X141.89 Y94.89 E1.70343
G1 X142.52 Y97.52 E1.75430
G1 X142.60 Y98.04 E1.76419
G1 X142.77 Y100.66 E1.81365
G1 X142.74 Y101.33 E1.82617
G1 X142.64 Y102.00 E1.83895
G1 X143.15 Y102.60 E1.85381
G1 X142.29 Y104.35 E1.89051
G1 X142.17 Y105.12 E1.90533
G1 X142.31 Y106.94 E1.93964
G1 X142.31 Y107.43 E1.94887
G1 X142.16 Y109.42 E1.98627
G1 X142.29 Y109.58 E1.99037
G1 X141.79 Y111.54 E2.02831
G1 X141.13 Y114.18 E2.07952
G1 X140.90 Y114.27 E2.08422
G1 X139.98 Y116.11 E2.12292
G1 X139.54 Y116.74 E2.13733
G1 X139.30 Y117.74 E2.15673
G1 X139.46 Y118.01 E2.16258
G1 X138.94 Y119.26 E2.18802
G1 X138.31 Y121.90 E2.23911
G1 X137.77 Y122.05 E2.24960
G1 X137.56 Y122.45 E2.25809
G1 X136.16 Y124.68 E2.30758
G1 X135.74 Y125.20 E2.32011
G1 X133.94 Y127.03 E2.36837
G1 X133.32 Y127.49 E2.38288
G1 X132.10 Y129.49 E2.42698
G1 X131.81 Y129.89 E2.43628
G1 X130.05 Y131.94 E2.48711
G1 X129.68 Y132.31 E2.49704
G1 X127.66 Y133.99 E2.54642
G1 X127.11 Y134.35 E2.55879
G1 X127.03 Y134.40 E2.56053
G1 X126.79 Y135.36 E2.57925
G1 X124.41 Y135.76 E2.62470
G1 X123.77 Y136.10 E2.63829
G1 X123.74 Y136.09 E2.63886
G1 X122.31 Y137.32 E2.67439
G1 X121.91 Y137.60 E2.68356
G1 X120.66 Y138.37 E2.71120
G1 X120.59 Y138.67 E2.71699
G1 X119.40 Y139.14 E2.74105
G1 X117.01 Y140.61 E2.79380
G1 X116.40 Y140.30 E2.80662
G1 X116.05 Y140.40 E2.81339
G1 X113.52 Y140.82 E2.86171
G1 X112.76 Y140.83 E2.87607
G1 X112.20 Y141.06 E2.88739
G1 X112.04 Y141.42 E2.89483
G1 X110.36 Y141.82 E2.92725
G1 X108.28 Y142.69 E2.96979
G1 X107.91 Y142.41 E2.97840
G1 X107.49 Y142.51 E2.98660
G1 X106.97 Y142.59 E2.99654
G1 X104.34 Y142.76 E3.04602
G1 X103.68 Y142.73 E3.05858
G1 X101.14 Y142.35 E3.10684
G1 X100.40 Y142.12 E3.12131
G1 X98.07 Y142.30 E3.16540
G1 X97.57 Y142.31 E3.17469
G1 X94.88 Y142.09 E3.22550
G1 X94.36 Y142.01 E3.23542
G1 X91.88 Y141.37 E3.28353
G1 X90.65 Y141.92 E3.30886
G1 X88.45 Y139.76 E3.36692
G1 X88.18 Y139.62 E3.37268
G1 X88.15 Y139.50 E3.37490
G1 X85.98 Y138.99 E3.41677
G1 X85.51 Y138.83 E3.42602
G1 X84.65 Y138.48 E3.44360
G1 X84.27 Y138.64 E3.45135
G1 X82.78 Y137.70 E3.48445
G1 X80.61 Y136.80 E3.52881
G1 X80.52 Y136.27 E3.53886
G1 X80.33 Y136.15 E3.54302
G1 X79.81 Y135.74 E3.55559
G1 X77.98 Y133.93 E3.60387
G1 X77.53 Y133.32 E3.61820
G1 X77.40 Y133.25 E3.62091
G1 X76.93 Y133.35 E3.63009
G1 X75.30 Y131.96 E3.67035
G1 X73.77 Y131.02 E3.70410
G1 X73.78 Y130.66 E3.71093
G1 X73.07 Y130.05 E3.72856
G1 X72.69 Y129.67 E3.73851
G1 X71.01 Y127.65 E3.78797
G1 X70.65 Y127.10 E3.80047
G1 X69.46 Y124.82 E3.84872
G1 X69.22 Y124.09 E3.86327
G1 X67.69 Y122.30 E3.90743
G1 X67.40 Y121.91 E3.91664
G1 X65.99 Y119.60 E3.96744
G1 X65.76 Y119.13 E3.97741
G1 X65.28 Y117.92 E4.00181
G1 X64.89 Y117.77 E4.00962
G1 X64.66 Y116.36 E4.03647
G1 X63.78 Y114.17 E4.08087
G1 X64.19 Y113.55 E4.09485
G1 X64.18 Y113.51 E4.09561
G1 X64.18 Y112.75 E4.10995
G1 X63.28 Y110.57 E4.15421
G1 X63.12 Y110.11 E4.16345
G1 X63.01 Y109.63 E4.17275
G1 X62.57 Y109.37 E4.18231
G1 X62.43 Y107.22 E4.22269
G1 X61.99 Y105.36 E4.25867
G1 X62.29 Y105.05 E4.26692
G1 X62.24 Y104.33 E4.28040
G1 X62.27 Y103.67 E4.29293
G1 X62.66 Y101.13 E4.34120
G1 X62.81 Y100.64 E4.35090
G1 X62.48 Y100.34 E4.35927
G1 X62.67 Y97.87 E4.40597
G1 X62.56 Y96.48 E4.43223
G1 X62.80 Y96.31 E4.43771
G1 X62.91 Y94.87 E4.46485
G1 X63.00 Y94.35 E4.47476
G1 X63.65 Y91.80 E4.52425
G1 X63.88 Y91.18 E4.53675
G1 X65.02 Y88.90 E4.58480
G1 X65.47 Y88.26 E4.59943
G1 X66.02 Y85.97 E4.64369
G1 X66.17 Y85.50 E4.65294
G1 X67.21 Y83.01 E4.70370
G1 X67.45 Y82.55 E4.71351
G1 X67.86 Y81.89 E4.72820
G1 X67.72 Y81.37 E4.73833
G1 X69.02 Y80.05 E4.77313
G1 X70.07 Y78.39 E4.81005
G1 X70.69 Y78.36 E4.82181
G1 X71.07 Y77.97 E4.83192
G1 X71.68 Y77.52 E4.84631
G1 X72.91 Y75.51 E4.89059
G1 X73.20 Y75.12 E4.89971
G1 X73.20 Y75.11 E4.89983
G1 X73.14 Y74.51 E4.91121
G1 F2400 E0.41121
G0 F4500 X81.20 Y83.95
;TYPE:WALL-OUTER
G1 F2400 E4.91121
G1 F1500 X81.23 Y83.95 E4.91177
G1 X85.23 Y80.18 E5.01511
G1 X85.22 Y80.15 E5.01566
G1 X85.25 Y80.17 E5.01614
G1 X81.21 Y83.97 E5.12041
G1 X81.20 Y83.95 E5.12092
G0 F4500 X80.56 Y84.75
G1 F1500 X77.51 Y89.38 E5.22518
G1 X77.50 Y89.36 E5.22566
G1 X77.53 Y89.36 E5.22621
G1 X80.55 Y84.77 E5.32958
G1 X80.54 Y84.74 E5.33010
G1 X80.56 Y84.75 E5.33055
G1 F2400 E0.83055
G0 F4500 X77.06 Y90.29
G1 F2400 E5.33055
G1 F1500 X75.16 Y95.50 E5.43483
G1 X75.14 Y95.48 E5.43534
G1 X75.17 Y95.47 E5.43593
G1 X77.05 Y90.31 E5.53925
G1 X77.03 Y90.29 E5.53978
G1 X77.06 Y90.29 E5.54027
G1 F2400 E1.04027
G0 F4500 X74.93 Y96.49
G1 F2400 E5.54027
G1 F1500 X74.56 Y99.63 E5.59989
G1 X74.93 Y96.51 E5.65905
G1 X74.90 Y96.49 E5.65959
G1 X74.93 Y96.49 E5.66005
G1 F2400 E1.16005
G0 F4500 X74.51 Y100.03
G1 F2400 E5.66005
G1 F1500 X74.29 Y101.99 E5.69724
G1 X74.26 Y101.98 E5.69773
G1 X74.29 Y101.97 E5.69831
G1 X74.51 Y100.03 E5.73503
G1 F2400 E1.23503
G0 F4500 X74.29 Y103.01
G1 F2400 E5.73503
G1 F1500 X74.29 Y103.03 E5.73549
G1 X74.26 Y103.02 E5.73604
G1 X74.29 Y103.01 E5.73651
G0 F4500 X74.40 Y103.95
G1 F1500 X74.93 Y108.51 E5.82301
G1 X74.90 Y108.51 E5.82348
G1 X74.93 Y108.49 E5.82404
G1 X74.40 Y103.95 E5.91006
G1 F2400 E1.41006
G0 F4500 X75.16 Y109.50
G1 F2400 E5.91006
G1 F1500 X77.06 Y114.71 E6.01433
G1 X77.03 Y114.71 E6.01482
G1 X77.05 Y114.69 E6.01537
G1 X75.17 Y109.53 E6.11869
G1 X75.14 Y109.52 E6.11926
G1 X75.16 Y109.50 E6.11976
G1 F2400 E1.61976
G0 F4500 X70.66 Y112.85
G1 F2400 E6.11976
G1 F1500 X70.60 Y112.89 E6.12124
G1 X70.61 Y112.82 E6.12272
G1 X70.66 Y112.85 E6.12383
G1 F2400 E1.62383
G0 F4500 X77.50 Y115.64
G1 F2400 E6.12383
G1 F1500 X77.51 Y115.62 E6.12428
G1 X80.56 Y120.25 E6.22855
G1 X80.54 Y120.26 E6.22900
G1 X80.55 Y120.23 E6.22954
G1 X77.53 Y115.64 E6.33291
G1 X77.50 Y115.64 E6.33344
G1 F2400 E1.83344
G0 F4500 X81.21 Y121.03
G1 F2400 E6.33344
G1 F1500 X84.43 Y124.07 E6.41668
G1 X81.23 Y121.05 E6.49947
G1 X81.20 Y121.05 E6.50002
G1 X81.21 Y121.03 E6.50051
G1 F2400 E2.00051
G0 F4500 X84.82 Y124.43
G1 F2400 E6.50051
G1 F1500 X85.25 Y124.83 E6.51142
G1 X85.22 Y124.85 E6.51190
G1 X85.23 Y124.82 E6.51247
G1 X84.82 Y124.43 E6.52292
G1 F2400 E2.02292
G0 F4500 X86.06 Y125.44
G1 F2400 E6.52292
G1 F1500 X90.86 Y128.21 E6.62719
G1 X90.84 Y128.23 E6.62767
G1 X90.84 Y128.20 E6.62822
G1 X86.08 Y125.45 E6.73155
G1 X86.06 Y125.46 E6.73211
G1 X86.06 Y125.44 E6.73259
G1 F2400 E2.23259
G0 F4500 X91.80 Y128.62
G1 F2400 E6.73259
G1 F1500 X91.82 Y128.62 E6.73301
G1 X91.80 Y128.64 E6.73350
G1 X91.80 Y128.62 E6.73394
G1 F2400 E2.23394
G0 F4500 X91.78 Y133.99
G1 F2400 E6.73394
G1 F1500 X91.78 Y134.06 E6.73533
G1 X91.73 Y134.01 E6.73671
G1 X91.78 Y133.99 E6.73776
G1 F2400 E2.23776
G0 F4500 X96.97 Y130.16
G1 F2400 E6.73776
G1 F1500 X97.11 Y130.20 E6.74033
G1 X97.09 Y130.23 E6.74082
G1 X97.08 Y130.20 E6.74140
G1 X96.97 Y130.16 E6.74350
G0 F4500 X98.11 Y130.38
G1 F1500 X98.13 Y130.38 E6.74395
G1 X98.11 Y130.40 E6.74450
G1 X98.11 Y130.38 E6.74496
G1 F2400 E2.24496
G0 F4500 X103.62 Y130.70
G1 F2400 E6.74496
G1 F1500 X103.64 Y130.70 E6.74542
G1 X103.63 Y130.73 E6.74588
G1 X103.62 Y130.70 E6.74641
G0 F4500 X104.65 Y130.65
G1 F1500 X104.68 Y130.64 E6.74683
G1 X104.67 Y130.66 E6.74733
G1 X104.65 Y130.65 E6.74776
G1 F2400 E2.24776
G0 F4500 X110.09 Y129.69
G1 F2400 E6.74776
G1 F1500 X110.11 Y129.68 E6.74822
G1 X110.11 Y129.71 E6.74867
G1 X110.09 Y129.69 E6.74921
G0 F4500 X111.09 Y129.39
G1 F1500 X111.11 Y129.38 E6.74968
G1 X111.10 Y129.41 E6.75022
G1 X111.09 Y129.39 E6.75067
G1 F2400 E2.25067
G0 F4500 X116.15 Y127.20
G1 F2400 E6.75067
G1 F1500 X116.18 Y127.19 E6.75113
G1 X116.18 Y127.22 E6.75158
G1 X116.15 Y127.20 E6.75210
G0 F4500 X117.06 Y126.69
G1 F1500 X121.50 Y123.38 E6.85639
G1 X121.51 Y123.40 E6.85689
G1 X121.48 Y123.39 E6.85747
G1 X117.08 Y126.67 E6.96079
G1 X117.08 Y126.70 E6.96135
G1 X117.06 Y126.69 E6.96184
G1 F2400 E2.46184
G0 F4500 X121.14 Y129.75
G1 F2400 E6.96184
G1 F1500 X121.23 Y129.81 E6.96373
G1 X121.11 Y129.83 E6.96600
G1 X121.15 Y129.78 E6.96717
G1 X121.14 Y129.75 E6.96774
G1 F2400 E2.46774
G0 F4500 X122.27 Y122.69
G1 F2400 E6.96774
G1 F1500 X122.24 Y122.68 E6.96821
G1 X122.33 Y122.58 E6.97064
G1 X122.26 Y122.66 E6.97260
G1 X122.27 Y122.69 E6.97317
G1 F2400 E2.47317
G0 F4500 X125.79 Y118.45
G1 F2400 E6.97317
G1 F1500 X125.81 Y118.43 E6.97361
G1 X125.82 Y118.45 E6.97406
G1 X125.79 Y118.45 E6.97458
G0 F4500 X126.36 Y117.58
G1 F1500 X126.38 Y117.56 E6.97503
G1 X126.39 Y117.59 E6.97555
G1 X126.36 Y117.58 E6.97599
G1 F2400 E2.47599
G0 F4500 X128.84 Y112.65
G1 F2400 E6.97599
G1 F1500 X128.85 Y112.63 E6.97641
G1 X128.87 Y112.64 E6.97682
G1 X128.84 Y112.65 E6.97732
G0 F4500 X129.20 Y111.67
G1 F1500 X129.21 Y111.65 E6.97777
G1 X129.23 Y111.67 E6.97832
G1 X129.20 Y111.67 E6.97879
G1 F2400 E2.47879
G0 F4500 X130.47 Y106.30
G1 F2400 E6.97879
G1 F1500 X130.48 Y106.28 E6.97923
G1 X130.50 Y106.29 E6.97969
G1 X130.47 Y106.30 E6.98024
G0 F4500 X130.60 Y105.27
G1 F1500 X130.60 Y99.73 E7.08448
G1 X130.62 Y99.74 E7.08498
G1 X130.60 Y99.75 E7.08553
G1 X130.60 Y105.25 E7.18882
G1 X130.62 Y105.26 E7.18940
G1 X130.60 Y105.27 E7.18991
G1 F2400 E2.68991
G0 F4500 X130.48 Y98.72
G1 F2400 E7.18991
G1 F1500 X130.47 Y98.69 E7.19040
G1 X130.50 Y98.71 E7.19097
G1 X130.48 Y98.72 E7.19145
G1 F2400 E2.69145
G0 F4500 X129.21 Y93.35
G1 F2400 E7.19145
G1 F1500 X129.20 Y93.33 E7.19189
G1 X129.22 Y93.33 E7.19234
G1 X129.21 Y93.35 E7.19289
G0 F4500 X128.85 Y92.37
G1 F1500 X128.84 Y92.35 E7.19333
G1 X128.87 Y92.35 E7.19384
G1 X128.85 Y92.37 E7.19428
G1 F2400 E2.69428
G0 F4500 X126.38 Y87.44
G1 F2400 E7.19428
G1 F1500 X126.36 Y87.42 E7.19470
G1 X126.39 Y87.41 E7.19514
G1 X126.38 Y87.44 E7.19566
G0 F4500 X125.81 Y86.57
G1 F1500 X125.79 Y86.55 E7.19611
G1 X125.82 Y86.55 E7.19666
G1 X125.81 Y86.57 E7.19713
G1 F2400 E2.69713
G0 F4500 X123.61 Y83.95
G1 F2400 E7.19713
G1 F1500 X122.24 Y82.32 E7.23716
G1 X122.27 Y82.31 E7.23763
G1 X122.26 Y82.34 E7.23818
G1 X123.61 Y83.95 E7.27775
G1 F2400 E2.77775
G0 F4500 X121.50 Y81.62
G1 F2400 E7.27775
G1 F1500 X117.06 Y78.31 E7.38204
G1 X117.08 Y78.30 E7.38253
G1 X117.08 Y78.33 E7.38307
G1 X121.48 Y81.61 E7.48640
G1 X121.51 Y81.60 E7.48697
G1 X121.50 Y81.62 E7.48749
G1 F2400 E2.98749
G0 F4500 X116.18 Y77.81
G1 F2400 E7.48749
G1 F1500 X116.15 Y77.80 E7.48796
G1 X116.18 Y77.78 E7.48852
G1 X116.18 Y77.81 E7.48900
G1 F2400 E2.98900
G0 F4500 X111.11 Y75.62
G1 F2400 E7.48900
G1 F1500 X111.09 Y75.61 E7.48947
G1 X111.10 Y75.59 E7.48992
G1 X111.11 Y75.62 E7.49046
G0 F4500 X110.11 Y75.32
G1 F1500 X108.27 Y74.99 E7.52561
G1 X110.09 Y75.31 E7.56027
G1 X110.11 Y75.29 E7.56082
G1 X110.11 Y75.32 E7.56128
G1 F2400 E3.06128
G0 F4500 X104.68 Y74.36
G1 F2400 E7.56128
G1 F1500 X104.65 Y74.36 E7.56172
G1 X104.67 Y74.33 E7.56215
G1 X104.68 Y74.36 E7.56265
G0 F4500 X103.64 Y74.30
G1 F1500 X103.61 Y74.30 E7.56312
G1 X103.63 Y74.27 E7.56366
G1 X103.64 Y74.30 E7.56413
G1 F2400 E3.06413
G0 F4500 X100.87 Y74.46
G1 F2400 E7.56413
G1 F1500 X98.11 Y74.62 E7.61625
G1 X98.11 Y74.60 E7.61671
G1 X98.13 Y74.62 E7.61725
G1 X100.87 Y74.46 E7.66891
G1 F2400 E3.16891
G0 F4500 X97.11 Y74.80
G1 F2400 E7.66891
G1 F1500 X95.22 Y75.36 E7.70596
G1 X97.08 Y74.80 E7.74252
G1 X97.09 Y74.77 E7.74308
G1 X97.11 Y74.80 E7.74358
G1 F2400 E3.24358
G0 F4500 X91.82 Y76.38
G1 F2400 E7.74358
G1 F1500 X91.80 Y76.39 E7.74402
G1 X91.80 Y76.36 E7.74447
G1 X91.82 Y76.38 E7.74499
G0 F4500 X90.86 Y76.79
G1 F1500 X86.06 Y79.56 E7.84926
G1 X86.06 Y79.53 E7.84977
G1 X86.08 Y79.55 E7.85032
G1 X90.84 Y76.80 E7.95366
G1 X90.84 Y76.77 E7.95421
G1 X90.86 Y76.79 E7.95470
;LAYER:1
M106 S255
G0 F4020 X90.86 Y76.79 Z0.40
;TYPE:WALL-OUTER
G1 F1320 X86.06 Y79.56 E7.98946
G1 X86.06 Y79.53 E7.98962
G1 X86.08 Y79.55 E7.98981
G1 X90.84 Y76.80 E8.02426
G1 X90.84 Y76.77 E8.02444
G1 X90.86 Y76.79 E8.02460
G0 F4020 X91.80 Y76.39
G1 F1320 X91.80 Y76.36 E8.02475
G1 X91.82 Y76.38 E8.02493
G1 X91.80 Y76.39 E8.02507
G1 F2400 E3.52507
G0 F4020 X95.20 Y75.37
G1 F2400 E8.02507
G1 F1320 X97.08 Y74.80 E8.03739
G1 X97.09 Y74.77 E8.03758
G1 X97.11 Y74.80 E8.03774
G1 X95.20 Y75.37 E8.05022
G1 F2400 E3.55022
G0 F4020 X98.11 Y74.62
G1 F2400 E8.05022
G1 F1320 X98.11 Y74.60 E8.05038
G1 X98.13 Y74.62 E8.05056
G1 X100.87 Y74.46 E8.06778
G1 X98.11 Y74.62 E8.08515
G1 F2400 E3.58515
G0 F4020 X103.61 Y74.30
G1 F2400 E8.08515
G1 F1320 X103.63 Y74.27 E8.08533
G1 X103.64 Y74.30 E8.08549
G1 X103.61 Y74.30 E8.08564
G0 F4020 X104.65 Y74.36
G1 F1320 X104.67 Y74.33 E8.08579
G1 X104.68 Y74.36 E8.08596
G1 X104.65 Y74.36 E8.08610
G1 F2400 E3.58610
G0 F4020 X108.76 Y75.08
G1 F2400 E8.08610
G1 F1320 X110.09 Y75.31 E8.09459
G1 X110.11 Y75.29 E8.09477
G1 X110.11 Y75.32 E8.09492
G1 X108.76 Y75.08 E8.10357
G1 F2400 E3.60357
G0 F4020 X111.09 Y75.61
G1 F2400 E8.10357
G1 F1320 X111.10 Y75.59 E8.10372
G1 X111.11 Y75.62 E8.10390
G1 X111.09 Y75.61 E8.10406
G1 F2400 E3.60406
G0 F4020 X116.15 Y77.80
G1 F2400 E8.10406
G1 F1320 X116.18 Y77.78 E8.10425
G1 X116.18 Y77.81 E8.10441
G1 X116.15 Y77.80 E8.10456
G0 F4020 X117.06 Y78.31
G1 F1320 X117.08 Y78.30 E8.10472
G1 X117.08 Y78.33 E8.10491
G1 X121.48 Y81.61 E8.13935
G1 X121.51 Y81.60 E8.13954
G1 X121.50 Y81.62 E8.13971
G1 X117.06 Y78.31 E8.17447
G1 F2400 E3.67447
G0 F4020 X122.24 Y82.32
G1 F2400 E8.17447
G1 F1320 X122.27 Y82.31 E8.17463
G1 X122.26 Y82.34 E8.17481
G1 X123.56 Y83.89 E8.18746
G1 X122.24 Y82.32 E8.20027
G1 F2400 E3.70027
G0 F4020 X125.79 Y86.55
G1 F2400 E8.20027
G1 F1320 X125.82 Y86.55 E8.20045
G1 X125.81 Y86.57 E8.20061
G1 X125.79 Y86.55 E8.20076
G0 F4020 X126.36 Y87.42
G1 F1320 X126.39 Y87.41 E8.20091
G1 X126.38 Y87.44 E8.20108
G1 X126.36 Y87.42 E8.20122
G1 F2400 E3.70122
G0 F4020 X128.84 Y92.35
G1 F2400 E8.20122
G1 F1320 X128.87 Y92.35 E8.20139
G1 X128.85 Y92.37 E8.20154
